/* XPM */
static char *d2x_redux_sng[] = {
/* columns rows colors chars-per-pixel */
"128 128 245 2 ",
"   c None",
".  c #000000",
"X  c #00000B",
"o  c #000013",
"O  c #00001D",
"+  c #141316",
"@  c #000024",
"#  c #00002B",
"$  c #000034",
"%  c #00003C",
"&  c #1D1C24",
"*  c #29282B",
"=  c #30302F",
"-  c #201F27",
";  c #000047",
":  c #000058",
">  c #000267",
",  c #000577",
"<  c #1E176E",
"1  c #3C385F",
"2  c #413F5B",
"3  c #55526C",
"4  c #696776",
"5  c #78777D",
"6  c #706F79",
"7  c #605E72",
"8  c #000A87",
"9  c #001298",
"0  c #000E91",
"q  c #00229E",
"w  c #0019A9",
"e  c #001DB3",
"r  c #0025A3",
"t  c #0029A6",
"y  c #0025AB",
"u  c #002DAB",
"i  c #0031AE",
"p  c #0024B4",
"a  c #002CB3",
"s  c #0029BB",
"d  c #0034B3",
"f  c #003AB6",
"g  c #0035BB",
"h  c #003CBA",
"j  c #363C90",
"k  c #0041BE",
"l  c #004BBE",
"z  c #2B49AF",
"x  c #7E7D81",
"c  c #727094",
"v  c #726DB2",
"b  c #575BA1",
"n  c #002CC3",
"m  c #0033C3",
"M  c #003BC3",
"N  c #0035CB",
"B  c #003BCC",
"V  c #003CD4",
"C  c #0044C3",
"Z  c #0049C6",
"A  c #0044CB",
"S  c #004CCC",
"D  c #0052CE",
"F  c #0254C7",
"G  c #0044D3",
"H  c #004DD3",
"J  c #004DDB",
"K  c #0044DA",
"L  c #0053D4",
"P  c #005AD5",
"I  c #0054DA",
"U  c #005BDB",
"Y  c #1857CF",
"T  c #0063DC",
"R  c #0069DD",
"E  c #0F75DE",
"W  c #3769D5",
"Q  c #004CE2",
"!  c #0054E3",
"~  c #005CE3",
"^  c #005CEA",
"/  c #0459E8",
"(  c #165EE2",
")  c #0063E4",
"_  c #006BE4",
"`  c #0164EA",
"'  c #0B66EB",
"]  c #006BEB",
"[  c #0C6AEE",
"{  c #0965E5",
"}  c #0073E5",
"|  c #0074EC",
" . c #007CEC",
".. c #0279E6",
"X. c #006CF2",
"o. c #0C6DF2",
"O. c #0067F5",
"+. c #116EF2",
"@. c #0074F2",
"#. c #0D72F5",
"$. c #007CF4",
"%. c #007DFC",
"&. c #0877FA",
"*. c #1272F6",
"=. c #1575F9",
"-. c #147BFC",
";. c #197AFD",
":. c #1669E9",
">. c #3676EA",
",. c #2B71EB",
"<. c #2359D4",
"1. c #5074D4",
"2. c #6A79C7",
"3. c #4A7BE4",
"4. c #837CB9",
"5. c #807E8E",
"6. c #837DC0",
"7. c #0084ED",
"8. c #008AEE",
"9. c #0581E9",
"0. c #0083F3",
"q. c #008CF3",
"w. c #0085FC",
"e. c #008BFB",
"r. c #0C86FD",
"t. c #1584FF",
"y. c #1B85FF",
"u. c #1A8BFC",
"i. c #0094F4",
"p. c #009BF6",
"a. c #0094FB",
"s. c #009BFB",
"d. c #0A97FF",
"f. c #1B98FB",
"g. c #0790EC",
"h. c #218BFF",
"j. c #2498FB",
"k. c #2C91ED",
"l. c #00A4FC",
"z. c #00ACFE",
"x. c #00A2F6",
"c. c #18A7FD",
"v. c #00B3FF",
"b. c #00BAFF",
"n. c #0AB5FE",
"m. c #17BAFF",
"M. c #00A2EA",
"N. c #27A8FD",
"B. c #29BBFE",
"V. c #39B0FB",
"C. c #7089D6",
"Z. c #508AED",
"A. c #6797EC",
"S. c #4AB2F9",
"D. c #72ABF5",
"F. c #01C6FF",
"G. c #16CCFE",
"H. c #28C5FF",
"J. c #37C4FF",
"K. c #34D5FF",
"L. c #30EBFF",
"P. c #07EEFF",
"I. c #48C6FE",
"U. c #57CAFE",
"Y. c #47D6FF",
"T. c #57D7FE",
"R. c #67CAFD",
"E. c #69D6FF",
"W. c #74D9FE",
"Q. c #76CBFE",
"!. c #50F0FF",
"~. c #68E8FF",
"^. c #77E6FF",
"/. c #77FCFF",
"(. c #69FBFF",
"). c #838383",
"_. c #84829F",
"`. c #8883BB",
"'. c #8986C4",
"]. c #938DC7",
"[. c #9A95CB",
"{. c #919AD6",
"}. c #A29CCE",
"|. c #A29DD1",
" X c #A9A5D3",
".X c #AEA9D5",
"XX c #A7A5D6",
"oX c #B2AED9",
"OX c #B1ADD7",
"+X c #B5B2DB",
"@X c #B9B5DD",
"#X c #BDB9DE",
"$X c #B5B0D7",
"%X c #A6A1CE",
"&X c #8FB1EF",
"*X c #BCBBE2",
"=X c #A9B8E7",
"-X c #99A5DD",
";X c #C1BEDF",
":X c #C1BDE1",
">X c #C1BDE8",
",X c #8ED5FB",
"<X c #B5CCF5",
"1X c #86E7FF",
"2X c #98E6FF",
"3X c #87F7FF",
"4X c #97F9FF",
"5X c #A7EAFF",
"6X c #A7FAFF",
"7X c #B7FCFF",
"8X c #B0E9FF",
"9X c #C5C2E2",
"0X c #C9C6E4",
"qX c #CDCAE6",
"wX c #CBC9EA",
"eX c #D1CEE9",
"rX c #D0CDE7",
"tX c #D5D3EB",
"yX c #D9D6ED",
"uX c #DCDAEE",
"iX c #C8DAF8",
"pX c #DEDCF1",
"aX c #D5D6F2",
"sX c #CCD2EE",
"dX c #E1DEF1",
"fX c #E3DFFB",
"gX c #E0DFEF",
"hX c #DAE6FA",
"jX c #CBFEFF",
"kX c #C4FCFF",
"lX c #DCFEFF",
"zX c #D4FDFF",
"xX c #C6E8FD",
"cX c #E4E3F3",
"vX c #E9E7F5",
"bX c #ECEBF6",
"nX c #EAECF9",
"mX c #F0EFF8",
"MX c #E4FEFF",
"NX c #ECF9FE",
"BX c #F4F4FA",
"VX c #FEFEFF",
"CX c #FDFDFE",
"ZX c #F5F8FB",
"AX c #C4C2DF",
/* pixels */
"                                                                                                                                                                                                                                                                ",
"                                                                                                                                                                                                                                                                ",
"                                                                                                                                                                                                                                                                ",
"                                                                                                                                                                                                                                                                ",
"        . . . . . . . . . . . . . . . . . . . . . . . . . . . . . . . . . . . . . . . . . . . . . . . . . . . . . . . . . . . . . . . . . . . . . . . . . . . . . . . . . . . . . . . . . . . . . . . . . . . . . . . . . . . . . . . . . . . . . . . .         ",
"        . . . . . . . . . . . . . . . . . . . . . . . . . . . . . . . . . . . . . . . . . . . . . . . . . . . . . . . . . . . . . . . . . . . . . . . . . . . . . . . . . . . . . . . . . . . . . . . . . . . . . . . . . . . . . . . . . . . . . . . .         ",
"        . . . . . . . . . . . . . . . . . . . . . . . . . . . . . . . . . . . . . . . . . . . . . . . . . . . . . . . . . . . + * * = * & - * * * * & & - * - & - = * * = * * = = = = = = * * - * = = = = * * = * - - & * = * * * * = = * * = = + . . .         ",
"        . . . . . . . . . . . . . . . . . . . . . . . . . . . . . . . . . . . . . . . . . . . . . . . . . . . . . . . . . . . c BXtXeXqX XeXmX:X#X9X@XoX#XqX@XXX+XtX+X:XBXbXbXmXZXmXBXBXVXcX9X9XuXbXbXbXyX.X#XBXbXtXOX.XyXZXBXvXbXbXBXVXbXcXCXZX).. . .         ",
"        . . . . . . . . . . . . . . . . . . . . . . . . . . . . . . . . . . . . . . . . . . . . . . . . . . . . . . . . . . . _.ZX+X].9XpXZXZXwX*XyXbXpXpXmXeXqXcX:X*XBXVXVXVXtXpXpXmXZXZXBXvXBXVXeX+XpXpX*XwXBXCXVXpXyX9XZXVXVXVXVXVXVXZXVXVXVX).. . .         ",
"        . . . . . . . . . . . . . . . . . . . . . . . . . . . . . . . . . . . . . . . . . . . . . . . . . . . . . . . . . . . c wX|..XqXVXBXvX*X#XuXbXtXbXZXdXbXVXyX9XbXVXVXVXcX@X#XcXZXcXcXcXVXvX:XtXVXZXcXcXmXZXVXVXBXuXVXVXZXZXVXZXZXZXbXCXZX).. . .         ",
"        . . . . . . . . . . . . . . . . . . . . . . . . . . . . . . . . . . . . . . . . . . . . . . . . . . . . . . . . . . . c wX9XuXuXZXBXtX:X*X X:XeX9XuXVXCXBXvXtXyXVXVXZXVXcXpXuXbXZXdXtXcXyXmXcXdXbXZXVXVXVXVXVXZXBXVXZXBXBXVXBXVXVXyXmXZX).. . .         ",
"        . . . . . . . . . . . . . . . . . . . . . . . . . . . . . . . . . . . . . . . . . . . . . . . . . . . . . . . . . . . 5.ZXZXmXBXyXdXoX[.:X[. X0X@XyXZXVXVXBXZXbXbXVXZXZXBXdXyXbXbXtXqX0X9XZXbXuXcXcXBXZXVXVXVXVXVXVXZXbXBXZXVXZXgXvXCXZX5 . . .         ",
"        . . . . . . . . . . . . . . . . . . . . . . . . . . . . . . . . . . . . . . . . . . . . . . . . . . . . . . . . . . . _.ZXVXBXbXrXuX:X|.@X}.].'.}.qXmXZXBXVXVXZXcXVXVXVXBXcXZXVXyXvXcXeXqXeXBXVXBXBXZXVXVXVXVXVXBXbXVXVXZXBXVXvXcXBXbX>X3 . . .         ",
"        . . . . . . . . . . . . . . . . . . . . . . . . . . . . . . . . . . . . . . . . . . . . . . . . . . . . . . . . . . . _.BXbXuXvXtXtX#X.X X'.v '.+X9XyXeXuXVXVXvXVXVXVXVXVXZXdXBXBXVXVXdXcXuXcXVXBXZXVXVXVXVXVXVXVXZXVXVXVXVXVXBXVXZX@X[.3 . . .         ",
"        . . . . . . . . . . . . . . . . . . . . . . . . . . . . . . . . . . . . . . . . . . . . . . . . . . . . . . . . . . . c cX}.rXZXcX#XoX:X#X.X].[.[.'.`.].#XyXoX$XVXVXVXVXVXVXbXZXVXCXcXvXZXuX:XbXbXZXVXVXVXVXVXVXVXVXCXVXVXVXVXVXBXmXtXXX3 . . .         ",
"        . . . . . . . . . . . . . . . . . . . . . . . . . . . . . . . . . . . . . . . . . . . . . . . . . . . . . . . . . . . c nXdXBXVXVXeX@X.X].;XuX X`.'.b b 4.`.v ].cXVXVXVXVXCXVXVXZXZXuXbXBX.X4.}.bXVXVXVXVXVXVXVXVXVXVXVXVXVXVXVXbXbXyX*X3 . . .         ",
"        . . . . . . . . . . . . . . . . . . . . . . . . . . . . . . . . . . . . . . . . . . . . . . . . . . . . . X X X o X . c nXNXnXnXcXwX+X'.].9XbXqXOXoX4.v v b `.v v .XcXVXVXVXVXVXVXVXBXtXvX4.< b uXVXVXVXVXVXVXVXVXVXVXVXVXVXVXVXVXmX9XeX3 . . .         ",
"        . . . . . . . . . . . . . . . . . . . . . . . . . . . . . . . . . . . . . . . . . . . . . . . . X X o O @ # $ % ; ; % z D.&X&X&X&X&X&X=X=XaXaX9X[.].`.v v '.tXcX`.v b  XBXVXVXVXVXVXVXBXpX4.j %XVXVXVXVXVXVXVXVXVXVXVXVXVXVXVXVXVXZXyXbX6 . . .         ",
"        . . . . . . . . . . . . . . . . . . . . . . . . . . . . . . . . . . . . . . . . . . . . . X o @ # % ; : > > , 8 8 8 0 m ' :.( ( ,.Z.Z.Z.D.&X&XiX=X'.v v #X.XOXtXvX[.`.v  XbXZXZXVXZXVXbXuXZXtXmXVXVXVXVXVXVXVXVXVXVXVXVXVXVXVXVXVXVXVXBX4 . . .         ",
"        . . . . . . . . . . . . . . . . . . . . . . . . . . . . . . . . . . . . . . . . . . X o @ $ ; : > 8 9 u l Y 1.Z.M.M.| X.c.i.` Q V G G J ! :.>.Z.A.&X&X-X<X+X*XtXbX:XvXtX}.tXBXbXCXZXVXZXBXBXZXZXVXVXVXVXVXVXVXVXVXVXVXVXVXbXyXBXVXVXVXBX5 . . .         ",
"        . . . . . . . . . . . . . . . . . . . . . . . . . . . . . . . . . . . . . . . . X O # ; : , 9 w p G ` e.b.3XVX(.P.P.F.F.7XzXT.$.B a d a y s N N G ,.Z.3.A.{.=XNXbXtXuXZXVXcXBXtXBXVXVXVXVXZXVXVXVXVXVXVXVXVXVXVXVXVXVXVXZXtX@XgXVXVXZXBX).. . .         ",
"        . . . . . . . . . . . . . . . . . . . . . . . . . . . . . . . . . . . . . . X O $ ; > 8 w n G V G U T ~ ] v.4X3XP.!./.6XjXjXlX~.$.m a d t r u t y n N I ( W 1.=XhXsXrXBXVXmXbXeXbXbXVXVXVXVXVXVXVXVXVXVXVXVXVXVXVXVXVXVXVXVXZXZXVXZXVXZXx . . .         ",
"        . . . . . . . . . . . . . . . . . . . . . . . . . . . . . . . . . . . . X O $ ; , 9 s N J U H B A A A S H I p.5XNXzXkX2XG.F.!.MXW.7.G A d d d t q q r p s N ( Z.D.<XiXnXVXBXVXmXBXuXBXVXVXVXVXVXVXVXVXVXVXVXVXVXVXVXVXVXVXVXVXVXVXVXVXZX6 . . .         ",
"        . . . . . . . . . . . . . . . . . . . . . . . . . . . . . . . . . . X o # ; , 9 m J K G L P G H H S S A A S J p.6XE.q.0.@.%.F.3XMX3Xp.G g k k t t t t r q u B J :.Z.&X<XhXnXvXBXvXpXvXVXZXbXBXVXVXVXVXVXCXVXVXVXVXVXVXVXVXVXVXVXVXVXZXZX4 . . .         ",
"        . . . . . . . . . . . . . . . . . . . . . . . . . . . . . . . . . o @ % > 0 s K ! J J J J J I U L H H H L S A T l. .G P U U $.v.I.~.4X .M f d u d h d u t r r t m K ,.Z.C.{.*XBXmXvXBXZXmXpXvXVXVXVXVXZXVXVXVXVXVXVXVXVXVXVXVXVXVXZXdX9X7 . . .         ",
"        . . . . . . . . . . . . . . . . . . . . . . . . . . . . . . . X o # : 8 e V Q ! ! ~ ) _ ~ U } } U I L P P S D T ] P S D D Z U a.z.b.kX8X$.m u u i d i u t u u q q r m J C z 2.hXCXZXZXBXBXBXBXBXVXVXVXVXVXVXVXVXVXVXVXVXVXVXVXVXVXVXrX'.2 . . .         ",
"        . . . . . . . . . . . . . . . . . . . . . . . . . . . . . . X O % > 9 B Q ! ~ ` ~ _ _ _ ~ ~ ) _ ~ U U U P P P T T L D D D L P ] e.s.Y.jXE.U d i u u u u t u d d t r r y N H W &XhXNXpXtXvXCXZXBXVXVXbXqXtXVXVXVXVXVXVXVXVXVXVXVXZXtX}.[.3 . . .         ",
"        . . . . . . . . . . . . . . . . . . . . . . . . . . . . . o @ ; , e V / / ^ ` ] ] ] ] ` ] | _ _ _ } ..} R U P P P L D D L L P P U $.F.3X8X .g d d i i i u u u d u t t r t m J >.&XiXsXoXeXBXuXtXbXZXcXXX9XZXVXVXVXVXVXVXVXVXVXyX}.4.+XqX4 . . .         ",
"        . . . . . . . . . . . . . . . . . . . . . . . . . . . . o # : 8 n Q ^ ^ ^ ` ` ] ] | |  .0.i.i.i.i.7.9...9.R T U P P P L T P S S L $.K.jX5X_ M g d d d h h d u u u u t t t r p K >.D.<XwXmXVXcXeXuXBXbXyX0XBXVXVXVXVXVXVXVXVXBXdX}..XZXBX4 . . .         ",
"        . . . . . . . . . . . . . . . . . . . . . . . . . . . o $ : 0 N / ^ ^ ` X.@.@.$.q.i.x.i.0.7.7.i.8.9...} } } } R T P P P P P L L U $.~.MXI.~ H k f d d d f d d d f u t d d u r r V ,.A.<XhXbXvXBXZXBXcXZXBXZXVXZXVXVXVXVXVXVXBXuXyXbXBXcX3 . . .         ",
"        . . . . . . . . . . . . . . . . . . . . . . . . . . o $ : 9 V / ^ ` @.@.@.0.0.i.q.q.i.q.q.q.q.8.8.7.9. .....} } R T T T P P L L P ` U.lXn.X.] S h g f d d d d d f d u u d d t r r V :.A.<XhXqXcXbXpXeXmXVXZXVXZXVXVXVXVXVXVXZX9X0X9X0XBX).. . .         ",
"        . . . . . . . . . . . . . . . . . . . . . . . . . o $ > 9 V ^ ^ ` @.$.$.$.0.0.e.e.a.i.i.p.p.p.i.i.i.8.8.8.9...} } R R T T P P L D L 8.4X6X^.I. .A g h g h k d i i i u d h f d t t t N :.D.<XaX9X0XpXcXBXBXbXZXZXVXVXVXVXZXbX;X.XuXbXvXCX).. . .         ",
"        . . . . . . . . . . . . . . . . . . . . . . . . o # : 9 V / ^ ` @.0.$.$.w.e.a.a.s.s.l.l.l.l.l.l.p.p.i.i.8.8.9...} _ R T T T P P D D H 7.Q.xXMXW. .P A h h h g f d d i i u d k d u t t N :.D.<XsXvXbXvXbXbXZXvXvXVXVXVXbXtXrXcXVXZXVXBXvX6 . . .         ",
"        . . . . . . . . . . . . . . . . . . . . . . . o # : 9 V ^ ^ ` ` @.q.w.w.a.s.s.l.z.z.z.z.z.v.z.z.x.x.p.i.i.8.8.9...} _ R T T U P P P L H J | R.zX4Xz.~ Z h g h f d f h d u u k d u u u r N ,.D.iXCXpXqXcXBXZXBXZXVXVXmXyXyXbXBXBXVXVXdXqX3 . . .         ",
"        . . . . . . . . . . . . . . . . . . . . . . X @ : 0 V / ^ ` ` $.i.a.e.a.s.z.z.z.v.v.v.v.v.v.v.z.z.z.x.p.i.i.8.8.9...} } R T T U P P D D S H ` S.lX8X0.A k k h h k Z C g d i d d u t d f a V ,.&XiXtXpXVXVXVXVXVXVXVXbXvXZXBXuX#XqXrXcXpX4 . . .         ",
"        . . . . . . . . . . . . . . . . . . . . . . O ; 8 n ! / ^ ` @.q.s.s.l.l.l.z.z.v.v.b.b.b.b.b.v.v.v.z.z.x.p.i.8.8.7. ...} _ R T U P P D D D D H ` I.MX2X_ M C h h C S C g d f d d u u u f i y V >.&XiXZXVXVXVXVXVXZXtXtXqX+XtXbX9X X[. X[.2 . . .         ",
"        . . . . . . . . . . . . . . . . . . . . . o % , p Q ! `  .$.q.s.s.v.z.l.z.v.v.v.b.b.b.b.b.b.b.v.v.z.z.l.x.x.x.8.7.9...} _ _ T T U P P L L L D H ` V.6XW.] S C k h k C h k C h d d i t d t r w K Z.<XnXVXVXVXmXBX0X9XtXuX0X@XcXbXeX@X X].3 . . .         ",
"        . . . . . . . . . . . . . . . . . . . . X # : w K Q / | i.0.0.a.z.v.l.z.v.b.b.b.m.m.G.m.m.b.b.b.v.v.v.z.l.z.z.i.8.7. ...} } _ T T T U P L L L D H J i.jXT.~ S C C k k h k h f h f d k C d s p s ^ D.iXZXCXyX0X@X XVXVXcXbXyX#XpXbXeXqXwX3 . . .         ",
"        . . . . . . . . . . . . . . . . . . . . @ ; 0 V J ! ^ | 0.@.$.a.l.l.l.v.v.b.b.H.H.H.J.J.H.H.m.b.b.v.v.z.l.l.x.i.8.7.9. .} } _ T T T U U P P P L S A I 2X7Xw.~ P F k h h h f d f h f C g H S.U.g.V ,.&XhXmXbXyX@XuXbX.X:XeX0XqXyXrX#XqXwX7 . . .         ",
"        . . . . . . . . . . . . . . . . . . . o % , s K J ^ ^ ` | $.w.a.s.l.z.v.b.b.H.H.J.J.I.I.J.H.H.n.b.v.v.v.z.x.p.i.i.8.7. .| } _ _ T T U U U U U P H S H S.lXN.! P S C k h h g d d f g m H B./.U.K.F.| Z.<XhXBX0X#XbX.Xv }.+XeXuXrX+XXX+X.X7 . . .         ",
"        . . . . . . . . . . . . . . . . . . X @ : w V J I ~ ] | @.$.e.s.z.v.v.v.b.m.H.J.I.I.U.I.I.J.H.m.b.v.v.v.z.l.x.p.i.q.7. . .| } _ ) T T U U U U P L U L g.6XV.^ P S Z C C k h h g M T S.Y.v.} H H ..` ' D.<XpXuXeXbXrXoX X X@XuXbX@X[.].XX7 . . .         ",
"        . . . . . . . . . . . . . . . . . . o ; 8 n G J I ^ ] 0.$.0.a.s.z.v.v.b.b.B.J.I.U.U.U.U.U.I.J.B.n.b.v.v.z.l.x.p.i.q.8.7. .| } _ _ ) T T T U U I I _ T  .6X2X$.U L Z C C C Z S I | ~.^.8.M g a d d m V >.&XsXnXyXbXZXdXyXdXtXqX9XOX'.[..X3 . . .         ",
"        . . . . . . . . . . . . . . . . . X # > w V G J I ~ |  .@.0.a.s.l.v.v.v.b.B.J.I.U.U.R.U.U.I.J.H.m.v.v.v.z.z.x.p.i.q.q.q.7. .| _ _ ) ) T U U U U U I I @.~.MXT.X.H S C Z A I $.E.7XU.S M h C d u u t a I Z.-XwXcXyXBXBXyXuXuXuX@X:X}.|.>X3 . . .         ",
"        . . . . . . . . . . . . . . . . . o ; 8 n G J I I _ 8.| $.q.i.l.z.z.v.v.b.B.J.I.U.U.R.U.U.I.J.H.m.b.v.v.z.z.x.p.i.i.q.q.0. .| | _ _ ) ) T U U U U U U ` l.jX2XX.H S A A L / U.zXU.U d d d d g u u t r N ,.C.=XcXeXyXbXuXcXvXoX9XyXoXoX.X3 . . .         ",
"        . . . . . . . . . . . . . . . . X # > e N H U I I _ | | $.q.x.l.z.z.v.v.b.m.J.I.I.U.U.U.I.I.J.B.m.v.v.v.z.z.x.s.p.i.q.0. .| | | ] _ ) ) ) ) U U ) ) ) ^ j.zX1X) S L S S A G I.6Xu.S k d d d d d u a r p G 3.-XrXgXeXpXuXbXmX9X0XqX9X:XXX4 . . .         ",
"        . . . . . . . . . . . . . . . . o % 8 n B A L I U ) ] | 0.q.p.x.z.z.v.v.v.m.B.J.I.I.I.I.I.J.B.m.b.v.v.z.z.l.x.s.p.i.q.0.0.q.$.| | ] _ ) ) ) ~ U ) ` ` %.T.NXI.^ S L L A Z A  .3XW.P k d f d d d u d t q N >.&XpXVXZXmXbXBXbXdXcXqX0XqX+X4 . . .         ",
"        . . . . . . . . . . . . . . . . @ : w N M A G H U _ | | 7.q.i.x.z.z.z.v.v.b.m.B.J.J.J.J.J.H.B.m.v.v.v.z.z.z.x.s.i.i.0.a.U.L.v.@.] ] _ _ ) ) ) ) ` %.s.K.4XCXE.` S S S A A Z Q T.3XP h g f f k d t i f r s :.&XiXBXVXZXBXVXmXuXqXuX:X XoX3 . . .         ",
"        . . . . . . . . . . . . . . . X $ , n B M A H H T } _ | 7.q.i.p.l.z.z.v.v.v.n.m.B.B.B.J.B.m.n.v.v.v.v.z.z.l.x.p.i.e.e.F.K.H.L.J.N.$.` ) ) ) ) ` %.Y./.4XCXVX^.` H H S S S A H f.6Xg.C f f d C g t f k t t K Z.=XvXZXVXZXVXVXcXeXdX X].XX4 . . .         ",
"        . . . . . . . . . . . . . . . o ; 9 N C M A H H T _ _ | 7.q.i.p.x.z.z.v.v.v.v.v.m.m.m.m.m.b.v.v.v.v.z.z.z.l.x.s.a.z.E.6XI.w.m.~.^.W.V.X.` ) ~ O.m.7XVXCXVXzXY.O.I P S S S S A Q 1XI.C f f d g g u i u t t m ,.&XsXcXVXZXBXBXbXuXOX`.'.}.4 . . .         ",
"        . . . . . . . . . . . . . . . @ > w m M M A S L T T _ }  .8.i.p.x.l.z.z.v.v.v.v.v.v.v.v.v.v.v.v.v.z.z.z.z.x.s.z.K.(.MXVX4Xl.%.r.j.E.3XR.f.$.#.%.W.CXNXVXzX(.n.&.) U P L P L A ` 8XS.C h g d h k i t d u t a / A.<XhXVXVXbXyXbX9X].[.}.yX5 . . .         ",
"        . . . . . . . . . . . . . . X $ , s g g M A S H R T _ }  .8.q.i.p.x.l.z.z.z.v.v.v.v.v.v.v.v.v.v.z.z.z.l.l.s.s.H.Y.B.^.R.V.a.$.@.X.%.1XjXz.e.n.I.lXVXNXNX(.L.c.r.| I H P U J ^ Q.7X9.Z k h d k k i i k u r t J Z.<XBXZXZXBXuXcX@X[. X*XpX4 . . .         ",
"        . . . . . . . . . . . . . . o ; 0 m g g C A A H T T T }  .7.8.q.i.p.x.l.l.z.z.v.v.v.v.v.v.z.z.z.z.z.l.l.x.s.l.G.n.w.l.a.$.0.$.$.@.$.2XlX1XW.T.3X7XCXCXCX6X!.n.w.w.$.] ^ J ` I.MXS.I A C h f h k i d k d t q N >.&XnXVXVXZXcXcXtX9XrXcXwX3 . . .         ",
"        . . . . . . . . . . . . . . O : w s d g C Z A H P U T _ ..7.7.q.i.i.p.x.l.l.z.z.z.z.z.z.z.z.z.z.z.l.z.l.s.s.l.b.l.e.e.w.0.0.$.$.$.@.V.U.S.E.V.t.Y.lXVXVXCXlX6X1X~.3X2XQ.S.E.MXjXe.H Z C h f f g d d d i u r s :.&XaXVXBXvXcXvXZXCXBXyXpX4 . . .         ",
"        . . . . . . . . . . . . . . # > w g g h h C Z L U P T _ }  .9.7.8.i.i.p.s.x.l.l.l.z.z.z.z.z.l.z.l.z.z.s.s.a.l.v.a.e.e.e.w.w.$.$.$.&.@.@.X.@.] ` d.T.^.lXzXT.T.1X4X4X4XjX6X2XQ.N.) A C Z k f d h g i i u a u g ! A.<XbXuXvXbXbXvXCXcXyXZX5 . . .         ",
"        . . . . . . . . . . . . . X $ , p g C g g C C S P P U R } }  .7.7.q.i.i.p.p.s.x.l.l.l.l.l.l.l.l.l.l.l.s.a.z.G.n.a.e.e.e.w.w.%.%.&.&.#.#.@.X.X.o.o.@.e.J.kX7Xn.w.f.a.w.f.9.) I H A A C C k h f h d u i u t u a G Z.=X0XqXeX0XcXBXBXcX+XtX).. . .         ",
"        . . . . . . . . . . . . . X % 8 s a d d h C C A P L P T _ } .. .7.7.q.q.i.i.p.s.s.s.s.x.x.l.x.s.s.s.s.s.a.Y.6XK.e.e.e.e.w.w.%.%.&.&.&.#.#.+.*.*.o.' X.X.V.lX2Xw.^ ^ ~ I L L H A A Z C C k f h C d i f i t t r N >.{.*XyXuXqXyXcXuXyXuXcXx . . .         ",
"        . . . . . . . . . . . . . o ; 9 s u d d g C C Z P L P T R _ } }  .7.8.q.q.q.i.i.i.p.s.s.s.s.s.s.s.a.a.a.n.jXjXv.e.e.e.w.w.r.r.&.&.=.#.#.*.#.+.o.o.' ' ' %.I.zX2X0.^ U I P P L S A Z C C k g C Z d i i u u u r m ,.&X9XqXtXcXbXtX9XdXZXZX).. . .         ",
"        . . . . . . . . . . . . . o : w m k h d g h Z Z D D P U T _ _ } } 8.i.0.0.q.q.q.i.i.i.a.i.a.a.a.a.a.a.a.J.lX5Xs.w.e.e.w.r.r.r.-.-.=.=.=.*.#.+.o.' [ ' ' *.@.y.5X5Xw./ U L L P S A Z Z C k h k k d i u u d d u s / A.sX#X@XbXCXBXbXdXcXBX5 . . .         ",
"        . . . . . . . . . . . . . O : y M k h d g h C Z Z D L P T R _ _ } 7.0. .7.7.q.q.q.q.i.i.i.i.a.a.s.m.Y.T.!.1XT.a.w.e.e.r.r.r.t.-.-.-.=.=.=.*.#.o.o.' ' ' o.o.^ w.7X8Xw.^ P P U L A A Z Z k h k g d d i u u u f a ~ A.*X}.+XbXVXVXVXZXBXZX5 . . .         ",
"        . . . . . . . . . . . . . @ > w a u d d d g C Z Z S D P U T T _ _ }  . . . .7.0.q.q.q.q.q.q.e.e.a.c.E.1Xl.a.l.d.w.r.r.t.t.t.t.t.;.;.-.=.=.=.*.*.#.o.' ' [ ' ` ` S.NX1X@.I L L H A Z Z Z k h f f d d d u t t i p ~ D.=XXX:XcXVXbXBXVXVXBX).. . .         ",
"        . . . . . . . . . . . . . @ > e a t u d d d k Z Z S D P P U T R _ _ } }  . . .7.0.0.0.0.q.q.q.e.e.w.w.e.w.e.e.r.r.r.t.t.t.t.t.y.y.;.;.;.;.y.;.=.*.o.[ ' ` { ` ` e.5XkXe.J L S S A A A C C k h f d d i u t t r t ! A.<X:XtXVXZXqXuXZXbXvX6 . . .         ",
"        . . . . . . . . . . . . . # , p a t u u d d g h C Z S D L P U T R _ _ _ } |  . . .0.0.0.0.0.0.q.w.e.w.w.e.e.e.r.r.r.t.y.y.t.y.y.y.t.y.y.y.N.j.;.*.+.[ ' ' ` ` ` w.8X7Xl.^ L S S A Z S S k h h f d d i u t t r t J A.iXqXtXBXBXbXbXBXtXdX4 . . .         ",
"        . . . . . . . . . . . . . # , a d t u f k h g h C C A S D P P U T T _ _ _ | |  . . .$.$.$.0.0.0.w.w.w.w.w.w.w.r.t.t.y.y.y.y.y.y.y.y.j.N.J.K.V.y.*.+.[ ' ' ' o.` a.6XNXI.` L L S A Z A S k h h f d i d g d t r r K A.<XoX;XcXBXVXVXvXpXBX6 . . .         ",
"        . . . . . . . . . . . . . # > a k a u f F Z g h k Z Z S D L U U U T T ) _ _ | | | |  .$.$.$.$.$.w.w.w.w.w.r.t.r.t.t.y.y.y.y.y.y.y.h.j.K.!.!.H.j.;.o.o.' ' X.&.%.l.4XCXS.I L D S A A Z C C h h h d d d k d t r t K Z.-X.XeXbXuXbXBXBXbXCX).. . .         ",
"        . . . . . . . . . . . . . # , a k u d a k C f h k D D D D L P U U T T T ) _ _ | | | | | $.$.$.$.$.%.%.w.r.r.r.t.t.t.y.y.y.y.y.y.h.h.N.L.(./.L.l.r.=.#.o.o.t.f.z.Y.NXjXf.J L L S A A Z C C k S C d d f k i t u t G 3.{.+XeXuX:XcXBXBXcXBX5 . . .         ",
"        . . . . . . . . . . . . . # > p d t u u d h f g h Z S S S D L P P U T T T ) _ _ ] ] | | | $.$.$.$.$.%.w.r.r.t.t.t.t.y.y.y.y.y.y.h.c.T.6XNXCXjX^.B.e.&.#.#.N.H.L.kXVX1Xw.! L L S A A L D C C Z k d d f k u t u a G W {.9XeXcXpXdXbXyXeXnX6 . . .         ",
"        . . . . . . . . . . . . . @ > p h d u u u d d g h k Z A S S D L L P U U T ) ) ) _ ] ] | | | @.@.$.$.&.&.&.-.-.;.t.y.y.h.h.h.h.y.c.1XNXMXkX7XjXNXjX~.B.t.t.f.K.7XMX(.G.@.I L S S A A L D C C h f d d d h u t t h ! 1.{.@X;XtXbXyXqXtXbXBXx . . .         ",
"        . . . . . . . . . . . . . @ > y g d g d d d d g h k C Z A S D L L P P U U T ) ) ) _ ] ] ] | @.@.@.$.&.&.=.-.-.;.y.y.y.y.h.h.f.B.^.NX1XJ.J.B.K.3XNXCX4Xm.c.H.4XMXS.0. .U H H S S A S A C C C h f d d d d u t u C / W 2.oX#X9XqX#X+XyXCXBX5 . . .         ",
"        . . . . . . . . . . . . . @ : y g u d d d d d g h k C C Z S L D L P U U U U ) ) ) ) ] ] ] | @.@.#.#.#.&.=.=.-.;.y.y.u.h.j.f.U.kXlXE.a.y.y.y.N.H.!.jXNX3X~.4X<XA._ I I L L D S S A S S C k k k g d i d d u t t m I 1.'.@X+X@X@X#XuXyXmXBX5 . . .         ",
"        . . . . . . . . . . . . . o : w g t t d d i d g C C S Z Z A D D S U U U U U U T ) ) ) ] ] ] | @.#.#.#.#.*.-.-.;.;.y.h.N.J.^.MXjXS.w.;.;.y.y.j.j.a.K.6XCXVX<X>.~ I I U P L H L S A Z Z Z k k h h f i i u d i r m ~ C.-X.XXX X XXX@XtXtXbX5 . . .         ",
"        . . . . . . . . . . . . . o ; 9 M i t g d i d d C S D C C Z A A S L U P P U U U ~ ) ) ` ] ] ] o.#.#.#.#.=.=.=.;.;.y.c.T.kXNX4XB.%.;.=.=.;.y.y.y.;.a.L.MXmXA.! U U U P L L L L S Z Z C C k k Z S g i u t k f r M ,.2.].oX[.+X.X}..XBXvXpX5 . . .         ",
"        . . . . . . . . . . . . . X % 8 m u t f d u i d h P Z h C C A A S S L L P U U U U ) ) ) ` ] ] [ [ #.#.*.*.=.-.;.;.e.Y.zXzXT.l.t.;.=.=.*.=.;.;.y.t.w.Y.jXxX*.~ U U I P I I L H S Z Z C C k C F Z d g d t u d r N >.b v .X@X@X}.oXvXVXZXpX5 . . .         ",
"        . . . . . . . . . . . . . X $ , p t t u u u i d h S C h C C Z A S S S P P U U U U ~ ) ) ) ` ' ] [ o.o.#.*.*.=.=.-.a.5XlXJ.e.;.;.=.=.*.*.*.*.=.-.-.-.l.~.xX| U U U I P U ~ U L S A Z M g g M A m S ..R Z Y k t G >.v '.#X*X#X@X0XBXBXvXuX).. . .         ",
"        . . . . . . . . . . . . . . @ > w a t u d u u d d g h h k C A A A S S L P I I I U U ~ ) ) ) ` ' [ o.[ o.#.*.*.=.%.N.zXzXJ.-.;.=.*.*.+.*.*.*.#.*.*.&.a.5X5X@.~ U I I P U U I H S A J T P U :.k.k.R.4X1XR.Z.Y a K 1.2.[.qX@XoX9XuXcXmXBXZX).. . .         ",
"        . . . . . . . . . . . . . . O : 9 a u u d d i d d f h h k S L A Z S S L L P P I U U ~ ~ ) ) { ` ` [ ' o.#.+.*.=.%.Y.MX6XV.-.=.=.+.+.+.+.*.*.+.o.o.O.I.MXI.%.` U P L H J ! ^ ^ I ] c.,X2X^.8X6X3X7XxX,Xk.F u s I 1.]..XqX@XoXqXdXcXpXZXZX).. . .         ",
"        . . . . . . . . . . . . . . o ; 8 p r u d d u i f f f h k L D C Z A S S L L L P I U U ~ ~ ) ) ` ` ` [ ' o.+.*.&.n.6XzXI.w.=.*.+.+.+.[ [ [ [ o.' [ O.T.MXV.X.X.^ / Q ) 9.V.I.Q.,X2XzXjXE.I.R.S.k.g.R S g t q m ,.C.|.9X9X.X:XeXcXBXtXZXCX).. . .         ",
"        . . . . . . . . . . . . . . X $ , e t t u u u i d d f g h A Z C Z A S S S H L P I I U U U ~ ~ { ` { ' [ ' o.=.a.~.MX3Xl.t.=.o.o.o.[ [ [ ' ` ' [ ' O.V.kXV.w.w.d.l.N.,XkXjX4X3X7XjX7XB.| I I B g a y a u r r G Z.{.[.oX.XoXuXuXqXbXBXBXbX).. . .         ",
"        . . . . . . . . . . . . . . . @ > w y t u d u i d d d f h C Z C Z Z A S S L L L P I I U U ~ ~ ~ ) ) ` ' ' +.-.m.6XMXY.d.y.=.o.' [ ' ' ' ` ` ` ` ) ^ h.7XK.G.H.L.4XlXjXU.V.k._ u.f.0.] H M g d i u t f d r y I A.C.[.0XtXqXbXcX*XOX#X[.wX).. . .         ",
"        . . . . . . . . . . . . . . . o ; 0 s u u u u u d d d f h C Z C C Z Z A S U L L L L U ~ U U U ~ ~ ) { ' o.#.%.J.jXVX^.s.&.o.[ ' [ ' ` { { ) ) ) ~ ~ $.7X7X4X!.4XVX2Xr.I H S A S S A S h f d g d u t d d t N ,.C.XXyXBXeX:XcXZXuX.X|.v }.4 . . .         ",
"        . . . . . . . . . . . . . . . X $ , p t t u u u d d f h f h C C C Z A A A S H L L L I ) _ U U U ~ ~ ) { ] #.%.S.MXNX~.a.o.' [ [ [ ` { ) ) ~ ~ U U U ` ,XCXCXMXNX5X .J S A A Z C k k h f f g d d u t a u t K 3.-X.XtXuX+X9XBXZXuXuX0X}.6.2 . . .         ",
"        . . . . . . . . . . . . . . . . @ : w p t d i u i h g h f g h k C Z A A A S S L L L L U ) U U U U ~ ~ ) ` X.&.c.4XCXW.a.&.' ` ` ' ` ) ~ ~ ~ U U U U ~ u.jX6XjXMXW.! H A A Z C C k h f f k C d i t t t t s I 1.-X]..XbX9XuXVXZXVXVXBXdX|.1 . . .         ",
"        . . . . . . . . . . . . . . . . o % 8 s u t d u u d d f g f h k k C Z Z A S S S S S L L P I U U U U ~ ~ ) ` ] %.m.7XkXB.@.) ) ) ) ) ~ ~ ~ U U U I I I ~ 1X4Xb.N.Z._ A A A Z C C h h f d g d u u t t r t V W {..XqXuXZXZXBXBXVXVXVXBXpXwX3 . . .         ",
"        . . . . . . . . . . . . . . . . . @ > w a r u u u u i d d f h h h C Z A A A A S S S L L L P I U U U U U ~ ) ) ` %.E.NXE.X.^ ~ ~ ~ U ~ ~ U U U U I I I ! R.4X@.J H U S Z Z C C k h h h d d d d u u f t p J Z.=XpXVXVXVXVXZXZXVXVXVXdXtXaX4 . . .         ",
"        . . . . . . . . . . . . . . . . . o % 8 p t r t u u d d d d f k k k C A A Z A S D S S L L L U U U U U U U ~ ) ) $.U.CX7Xf.^ U U U U U U U I I P I P P ! U.4XX.P S S Z Z C C k h k C f d d d d t i f t n Z C.<XcXmXVXVXVXVXBXZXVXZXbXBXpX6 . . .         ",
"        . . . . . . . . . . . . . . . . . X @ > w p t t u u d g d d d F F h C C Z Z A S L S S S L H U U P U U U U U ~ ~ %.W.CXVX1X@.I U U U I I I I P P P P P I I.6X@.L A Z C C C k h h F Z d g d u u u t q p B z {.tXyXZXZXBXBXmXvXvXbXBXeXvXyX4 . . .         ",
"        . . . . . . . . . . . . . . . . . . o % 8 p u t u u u i i d h Z Z k k k C C Z A S P L L H H H G I U U U U ~ ) ` w.T.NXVXVXQ.~ I I I I I I P L L L L I / V.kX] A Z C C C C k h Z F k d d u u t t t r N Y b '.tXyXtXvXdXyXZXCXcXtXrX+X0XuX6 . . .         ",
"        . . . . . . . . . . . . . . . . . . . @ : w a t t t u u u h C g h h h k C C C Z A S L H ) ] T k.N.) I ~ ] ] @.w.F.4XMX5X5X7XS.) G L I P L L L L H I ` f.5X8XI C Z C C C k h h C f d i i f i u t t s H 1.C.'.9XBXcXbXbXbXVXVXBXbXvXcXyXqX4 . . .         ",
"        . . . . . . . . . . . . . . . . . . . X $ , e t r d d h f d d d d h g h k C C Z A A Z L V.W.R.E.j.U I ~ @.%.w.v./.jXD.0.@.k.^.T.k.G G H H L L L H ^ f.8X6Xf.S Z C C C k h h f d d d u i k d a t y N W C.oX|.9XBXZXVXVXZXZXZXVXVXVXVXVXbX6 . . .         ",
"        . . . . . . . . . . . . . . . . . . . . o ; 8 p t d C Z l t u d h Z h f h k C C C Z M R 3X^.k.U S S L ~ ] %.l.~.lXS./ J J J { S.^.S.,.I G S S H ~ V.kX4Xi.J A Z C k k h f f g g g d u d g u u t m S 1.{.9X@X+XbXBXBXBXVXVXBXZXZXVXVXbXbX6 . . .         ",
"        . . . . . . . . . . . . . . . . . . . . X @ : w p t d f Z d u d Z F h d h h k k k C g E ^.>.m A A S L ~ $.e.Y.lXD.! H S L H H I k.3X7X,XS.] ! ^ S.jXW.w.I A A C h h k h h d d g d u u d d u u s I 1.2.XX:XeX0XuX0XyXvXVXVXZXVXVXBXcXdXZXx . . .         ",
"        . . . . . . . . . . . . . . . . . . . . . o $ > e y r t d d g d k Z h d f h C k k k h T R.k.A P S S J ^ %.J.MX5X$.G S S S S L S H #.V.1XjXT.z.Q.MX^.] J S Z Z k h Z Z f h g d f d u u d t r s V <.2.v v  X0XcXBXqX+XbXVXVXZXVXVXZXvXcXBX6 . . .         ",
"        . . . . . . . . . . . . . . . . . . . . . . o ; , e t r t t d d d g d d f f h h C P U A k.~.E K ) } q.m.I.lXzXn./ S S S S S S S S S I  .2X4X(.MX/.a.I S Z C h h Z F k f h f d i u u u u t y N Y 1.v v v }. XeXbXqX@XuXVXbXBXVXZXmXdXtXcX4 . . .         ",
"        . . . . . . . . . . . . . . . . . . . . . . X @ ; 8 p t t d t u d u i d d d d g k S U I I S.1XJ.G.T.3X7XjXzXT.0.A Z A A A A S S S S A I N.7XCX3Xz.) H S C h h k k k d h h i u u u t t u a V <.1.v [.:X[.}.#XuX9X0X:XqXtXqXbXVXZXBXbXbXBX6 . . .         ",
"        . . . . . . . . . . . . . . . . . . . . . . . X # : 0 p d h u t u i d d d d d f Z D I I ^ U.NXlX4X5XE.V.N.q.~ S A Z Z Z A A H L L ~ ) ! @.2XlXN.~ H S A k g k C d d h d u u u t t t u u N ( C.=X[.OX%X.XpXbXtX XOXrXqXqXcXZXVXVXBXvXdXyX4 . . .         ",
"        . . . . . . . . . . . . . . . . . . . . . . . . o # : 9 p t u d d h d u i i d C C D L H X.1X6X!.m.0.I H S S Z Z C A A Z Z A P S H s.!.H.c.4XS.H C A Z C h f d d h h d i d g d u u d t N ,.A.{.hX0X].[.#XqXyXbX#XXX:XdXbXcXcXBXVXdX:XdXcX4 . . .         ",
"        . . . . . . . . . . . . . . . . . . . . . . . . . o # : 9 p d h i u i u u i d h k h A ^ S.6XN.| U C C Z Z C C C C Z S C C Z Z S | !.lXjX/.~._ M k h h f f d d d k f t f F Z u t d d V ( A.<X.X9XyX#X#XcXyXbXbXtX XOXXX*X+X+XyXbXcXqXuXdX7 . . .         ",
"        . . . . . . . . . . . . . . . . . . . . . . . . . . o # : 9 n a t t t u u h h d h h A O.Y.Y.I m g h k k k k h k C C C Z Z Z Z ) G.!.jXVXzXV.H g g f d f f d d d d d u d k d r q r V ,.D.=XaXvXvXeXuXbXuXcX@X%XbXuXuX[.+XrX0X:XXX0X@XXXXX3 . . .         ",
"        . . . . . . . . . . . . . . . . . . . . . . . . . . . o # : 0 e y t r t u d d d g A ~ f.~.V.^ C f h h f g h k h h M A H H H I a.!.L.(.lXE.) M h f d d d g d i d d u u u u t q y K >.&XiXhXVXVXbXbXBXBXVXZXrX[.BXVXbXtXvXcX0XeXqX0X9X X|.7 . . .         ",
"        . . . . . . . . . . . . . . . . . . . . . . . . . . . . o @ ; 8 e s t t t u t d h I @.E.4Xa.` Z h h f h h C H J H H ] X.` ) @.a.H.F.L.7Xc.G k f d d d d d d u u u t t u t r s Q Z.&XiXcXCXmXuXBXBXBX;XcXVXVXbXZXVXBXVXVXBXbXBXrX}.:X:XaX4 . . .         ",
"        . . . . . . . . . . . . . . . . . . . . . . . . . . . . . X @ ; , w s u t t t u h ! O.K.3X#.A h g h h k A H 0.m.I.U.~.E.b.%.O.` ` w.J.6XV.J C d d i i i u i u u t t t r r m ^ Z.&XiXZXbXZXbXyXbXBXpX XbXZXVXVXVXBXvXCXBXZXbXeXoX X#XbXbX5 . . .         ",
"        . . . . . . . . . . . . . . . . . . . . . . . . . . . . . . X o $ > 9 e p t r u h ] v.3XW.I a u i d d h H e.!.jXkX!.^.jX6XN.w.O.Q K ` ~.V.B g i i u u u t t u t t q r s K ,.D.<XhXZXCXBXCXVXVXZXBXbXcXAXuXVXVXVXZXBXmXBXVXmX#XOXtXyXVXCX).. . .         ",
"        . . . . . . . . . . . . . . . . . . . . . . . . . . . . . . . . o # ; , w p u r a 7.6X4Xq.m d f d d d m ! K.jX4XS.~ ) j.1X4X5XU.l.$.q.Y.U.B g d u t t u u a u r q y N ^ Z.&X<XnXZXZXZXZXmXBXVXVXVXVXVX#XcXVXVXVXCXVXZXZXVXVXbXbXBXZXbXBX).. . .         ",
"        . . . . . . . . . . . . . . . . . . . . . . . . . . . . . . . . . X O % > 8 w p p :.jXW.J u k k i i M } m.kX2Xe.I g g J a.B.^.6X!.L./.3XK.J g d u u f d t u t y n Q >.D.<XhXnXbXCXVXVXVXvXqXtXBXVXZXVXZXVXVXVXVXVXVXVXVXVXVXZXVXZXBXdXBX).. . .         ",
"        . . . . . . . . . . . . . . . . . . . . . . . . . . . . . . . . . . . o # ; > 0 e n A.3X8.a t u u a T F.L./.c.K g d d L ~ I ` I./.P.3X(.b.@.D d u d f t r s N Q ,.A.,XiXnXZXCXCXVXVXyX0XZXBXbXcXBXVXZXZXVXVXVXVXVXVXVXVXVXVXbXbXZXBXdXZX).. . .         ",
"        . . . . . . . . . . . . . . . . . . . . . . . . . . . . . . . . . . . . X o # ; > 8 w U _ g r r t M | w._ 7.) g u d d C C g U F.!.(./.7XH.^ M u r t d s N / >.A.&X<XhXZXCXVXVXVXVXVXtXtXVXVXVXBXZXVXdXtXZXBXZXVXVXVXVXBXBXVXbX.XtXVXbXbXx . . .         ",
"        . . . . . . . . . . . . . . . . . . . . . . . . . . . . . . . . . . . . . . X o # ; > , 9 e p a u d P 9.C g M d u d g d f Z R Z.,X!.!.7XW.^ g y a m J / >.A.&X<XhXNXCXVXVXBXBXVXVXVXVXVXVXVXVXVXVXyXyXZXcXoX9XZXVXbXBXVXtX%XqXqXbXVXZXBX).. . .         ",
"        . . . . . . . . . . . . . . . . . . . . . . . . . . . . . . . . . . . . . . . . X o # % : > 8 9 w p B U m a h h a d u t u d k W k.G.L.B.j.Q V K ! ,.A.D.<X<XhXZXZXVXVXVXVXZXVXVXZXVXVXVXVXVXVXVXZX#X#XtXuX[.;XVXmX0XyXBX#X XmXVXZXbXVXZX).. . .         ",
"        . . . . . . . . . . . . . . . . . . . . . . . . . . . . . . . . . . . . . . . . . . X o O # % ; > , 8 9 w w p p s s p s g s m A J ) ] ! ~ ,.3.Z.A.&X<XiXnXnXbXZXvXbXVXVXCXcXBXVXVXVXVXVXVXVXVXZXVXcX+XuXVXBXZXVXBXdXoX}.#X0XbXVXVXZXVXZX).. . .         ",
"        . . . . . . . . . . . . . . . . . . . . . . . . . . . . . . . . . . . . . . . . . . . . . X o o @ $ % ; : > , , 8 8 8 m ( ( ( <.>.Z.3.A.&X&X&X<XhXnXnXZXCXZXZXVXZXZXZXBXBXZXVXVXVXVXVXVXVXVXVXVXVXZXZXVXVXVXVXVXVXVXdXeXpXtXbXBXdXvXZXZX).. . .         ",
"        . . . . . . . . . . . . . . . . . . . . . . . . . . . . . . . . . . . . . . . . . . . . . . . . . X o o @ @ # $ $ $ % j C.C.C.&X=X<X<XiXhXhXvXvXcXuXtXbXbXVXVXVXVXVXmXcX9XcXVXZXVXVXVXVXVXVXVXVXVXVXVXVXVXZXBXZXCXVXVXVXZXtX#X@X X9XZXBX5 . . .         ",
"        . . . . . . . . . . . . . . . . . . . . . . . . . . . . . . . . . . . . . . . . . . . . . . . . . . . . . . . X X X X j -X.XwXnXnXnXCXZXbXbXmXtX9X+X:XyXvXVXVXVXVXVXVXZXcXBXVXBXVXVXVXVXVXVXVXZXvXZXVXVXVXVXVXVXBXBXmXbXVXbXqX.X#XqXyXaX7 . . .         ",
"        . . . . . . . . . . . . . . . . . . . . . . . . . . . . . . . . . . . . . . . . . . . . . . . . . . . . . . . . . . . 3 [.:XuXvXZXmXCXbXBXBX%X}.:X+X9XuXBXZXZXVXBXBXZXVXVXVXVXBXVXVXVXVXVXVXVXBXtXbXZXVXVXVXVXVXZXuX0XuXZXVXbXyXqX.X[.*X4 . . .         ",
"        . . . . . . . . . . . . . . . . . . . . . . . . . . . . . . . . . . . . . . . . . . . . . . . . . . . . . . . . . . . 1 v +XyXBXcXbXVXZXVXBX$XAXtX9X#XqXZXvXvXVXZXBXZXVXVXVXVXVXVXVXVXVXVXVXVXVXVXZXZXVXVXVXVXVXbX#X+XcXBXvXtXuX+X XXX*X4 . . .         ",
"        . . . . . . . . . . . . . . . . . . . . . . . . . . . . . . . . . . . . . . . . . . . . . . . . . . . . . . . . . . . 1 [.+XrXvXdXBXmXVXVXcXvXVXZXcX9X+X9XpXvXBXZXVXVXVXVXVXVXVXVXVXVXVXVXVXVXVXVXVXVXVXZXVXVXZXbXuXyXVXVXyX#X+XoXpXyXeX4 . . .         ",
"        . . . . . . . . . . . . . . . . . . . . . . . . . . . . . . . . . . . . . . . . . . . . . . . . . . . . . . . . . . . 3 .X9XqXBXVXVXBXVXVXBXZXBXuXqXqX#X:XbXcXpXcXBXVXVXVXVXVXVXVXVXVXVXVXVXVXVXVXVXVXVXZXVXVXVXBXcXbXVXBXqXoX+X:XcXyXcX5.. . .         ",
"        . . . . . . . . . . . . . . . . . . . . . . . . . . . . . . . . . . . . . . . . . . . . . . . . . . . . . . . . . . . b *XyXbXVXBXVXVXVXVXVXVXbX0X9XvX0X9XBXcXuXZXBXbXVXVXVXVXVXVXVXVXVXVXVXVXVXVXVXVXVXVXVXBXVXZXmXvXVXcX9X+X0XqX0X0XcX5 . . .         ",
"        . . . . . . . . . . . . . . . . . . . . . . . . . . . . . . . . . . . . . . . . . . . . . . . . . . . . . . . . . . . b >XdXZXbXbXVXVXVXVXVXVXVXcXpXZXbX#XBXCXZXVXVXZXVXVXVXVXVXVXVXVXVXVXVXVXVXVXVXVXVXVXVXZXVXZXBXBXbXuX0X.X:X9X#XqXaX4 . . .         ",
"        . . . . . . . . . . . . . . . . . . . . . . . . . . . . . . . . . . . . . . . . . . . . . . . . . . . . . . . . . . . c aXuXcXbXZXVXVXVXVXVXVXVXBXbXVXBXuXZXVXVXVXVXVXVXVXVXVXVXVXVXVXVXVXVXVXVXVXVXVXVXVXVXVXVXVXVXbXcXdXuXuXcXvXuXdXaX6 . . .         ",
"        . . . . . . . . . . . . . . . . . . . . . . . . . . . . . . . . . . . . . . . . . . . . . . . . . . . . . . . . . . . b eXbXbXBXVXZXVXVXVXVXVXZXVXZXVXBXZXVXVXVXVXVXVXVXVXVXVXVXVXVXVXVXVXVXVXVXVXVXVXVXVXVXVXVXZXbXbXmXbXBXVXVXVXZXZXZXx . . .         ",
"        . . . . . . . . . . . . . . . . . . . . . . . . . . . . . . . . . . . . . . . . . . . . . . . . . . . . . . . . . . . c fXBXZXZXBXnXZXZXZXZXZXZXZXZXZXZXZXZXZXZXZXZXZXZXZXZXZXZXZXZXZXZXZXZXZXZXZXZXZXZXZXZXZXZXBXwXwXZXZXmXBXZXZXZXZXBX).. . .         ",
"        . . . . . . . . . . . . . . . . . . . . . . . . . . . . . . . . . . . . . . . . . . . . . . . . . . . . . . . . . . . 2 x x ).5 4 4 5 x ).).).).).).).).).).).).).).).).).).).).).).).).).).).).).).).).).).).).).6 7 5 5 5 ).5 x ).6 5 2 . . .         ",
"        . . . . . . . . . . . . . . . . . . . . . . . . . . . . . . . . . . . . . . . . . . . . . . . . . . . . . . . . . . . . . . . . . . . . . . . . . . . . . . . . . . . . . . . . . . . . . . . . . . . . . . . . . . . . . . . . . . . . . . . .         ",
"        . . . . . . . . . . . . . . . . . . . . . . . . . . . . . . . . . . . . . . . . . . . . . . . . . . . . . . . . . . . . . . . . . . . . . . . . . . . . . . . . . . . . . . . . . . . . . . . . . . . . . . . . . . . . . . . . . . . . . . . .         ",
"        . . . . . . . . . . . . . . . . . . . . . . . . . . . . . . . . . . . . . . . . . . . . . . . . . . . . . . . . . . . . . . . . . . . . . . . . . . . . . . . . . . . . . . . . . . . . . . . . . . . . . . . . . . . . . . . . . . . . . . . .         ",
"                                                                                                                                                                                                                                                                ",
"                                                                                                                                                                                                                                                                ",
"                                                                                                                                                                                                                                                                ",
"                                                                                                                                                                                                                                                                "
};
