/* XPM */
static char *d1x_redux_sng[] = {
/* columns rows colors chars-per-pixel */
"128 128 256 2 ",
"   c None",
".  c gray1",
"X  c #160308",
"o  c #031211",
"O  c #27030B",
"+  c #36030D",
"@  c #380311",
"#  c #44030A",
"$  c #490312",
"%  c #590315",
"&  c #680318",
"*  c #78031C",
"=  c #7D0321",
"-  c #175609",
";  c #115D0E",
":  c #265203",
">  c #0C680E",
",  c #0E7519",
"<  c #155D21",
"1  c #176829",
"2  c #127926",
"3  c #1C6533",
"4  c #197734",
"5  c #28594E",
"6  c #315857",
"7  c #1E7943",
"8  c #357653",
"9  c #047471",
"0  c #347465",
"q  c #307069",
"w  c #434554",
"e  c #6E6F6E",
"r  c #7B777B",
"t  c #85031F",
"y  c #950311",
"u  c #AC031E",
"i  c #890322",
"p  c #980326",
"a  c #8D1D32",
"s  c #AA0429",
"d  c #BA082C",
"f  c #BD0B31",
"g  c #BB1932",
"h  c #B6243A",
"j  c #C6062C",
"k  c #D5042C",
"l  c #C3142E",
"z  c #C70B34",
"x  c #D70635",
"c  c #CA1339",
"v  c #D4153D",
"b  c #E6062D",
"n  c #FD042B",
"m  c #E60639",
"M  c #FB0839",
"N  c #E8163C",
"B  c #FA173B",
"V  c #F32137",
"C  c #FE263C",
"Z  c #FF343B",
"A  c #9F3141",
"S  c #BA2A49",
"D  c #AD334C",
"F  c #B3324A",
"G  c #AA3C57",
"H  c #B3345A",
"J  c #AE3C60",
"K  c #DB0D41",
"L  c #CC1843",
"P  c #D91A43",
"I  c #DF1953",
"U  c #EA0845",
"Y  c #FC0548",
"T  c #E61B47",
"R  c #FA1949",
"E  c #FF0657",
"W  c #EF1350",
"Q  c #FE1857",
"!  c #C12245",
"~  c #DE2145",
"^  c #CF2754",
"/  c #D92757",
"(  c #E92248",
")  c #FA284C",
"_  c #FF354A",
"`  c #E82555",
"'  c #FE2853",
"]  c #FF3455",
"[  c #FF0B64",
"{  c #FF1968",
"}  c #FF1A71",
"|  c #D13966",
" . c #E82E66",
".. c #FF2568",
"X. c #FE3768",
"o. c #FF2874",
"O. c #FF3879",
"+. c #8F4E58",
"@. c #A54154",
"#. c #8F5C6A",
"$. c #97576B",
"%. c #9A5B77",
"&. c #A94869",
"*. c #A2556D",
"=. c #A35075",
"-. c #8C6775",
";. c #FF404F",
":. c #FF4356",
">. c #FF4568",
",. c #FF4677",
"<. c #FE547A",
"1. c #0A8417",
"2. c #13822A",
"3. c #128A2F",
"4. c #178736",
"5. c #1C8747",
"6. c #1A934B",
"7. c #1B8756",
"8. c #189559",
"9. c #22844A",
"0. c #20904C",
"q. c #228456",
"w. c #13A85F",
"e. c #1B8668",
"r. c #179769",
"t. c #1A8677",
"y. c #0B9572",
"u. c #0B997C",
"i. c #159778",
"p. c #228461",
"a. c #3E8C7B",
"s. c #11AD70",
"d. c #0CB376",
"f. c #408E7D",
"g. c #147A88",
"h. c #767B8B",
"j. c #6B7C96",
"k. c #757994",
"l. c #6E7BA5",
"z. c #FF3985",
"x. c #FF328A",
"c. c #FF17A3",
"v. c #FF33B1",
"b. c #9C5F85",
"n. c #936689",
"m. c #89778A",
"M. c #966B94",
"N. c #8D7298",
"B. c #9073A0",
"V. c #FF4884",
"C. c #FF5688",
"Z. c #FF4795",
"A. c #FF5A96",
"S. c #FF668A",
"D. c #FF6796",
"F. c #FF739B",
"G. c #FF58A4",
"H. c #FF4EB0",
"J. c #FF67A5",
"K. c #FF78A6",
"L. c #FF69B7",
"P. c #FF79B5",
"I. c #FF67C4",
"U. c #FF7AC7",
"Y. c #188586",
"T. c #0D998A",
"R. c #149787",
"E. c #0B8994",
"W. c #118B98",
"Q. c #069596",
"!. c #139796",
"~. c #3E9587",
"^. c #0CB986",
"/. c #10B587",
"(. c #0FA79D",
"). c #0DB898",
"_. c #10B693",
"`. c #0394A9",
"'. c #0BB8A8",
"]. c #0FBBAD",
"[. c #3AB2A9",
"{. c #479C8A",
"}. c #549893",
"|. c #6C8487",
" X c #698B93",
".X c #688698",
"XX c #4BA396",
"oX c #5C96A7",
"OX c #4F93BB",
"+X c #5395B4",
"@X c #6181AE",
"#X c #4FAAB0",
"$X c #4AB9BC",
"%X c #07C68B",
"&X c #07D58F",
"*X c #06CA95",
"=X c #06D29E",
"-X c #0CCEAC",
";X c #04D6AA",
":X c #04D7B8",
">X c #32C8B7",
",X c #03BAD9",
"<X c #3BB6CE",
"1X c #03BBFF",
"2X c #31BCE0",
"3X c #46A8C4",
"4X c #47B8C3",
"5X c #05D7C9",
"6X c #1BDBCC",
"7X c #04C8D8",
"8X c #04D7D5",
"9X c #35C6D8",
"0X c #2ED2D5",
"qX c #33D3D6",
"wX c #03EBD7",
"eX c #0DEFD0",
"rX c #03FFDB",
"tX c #25E7D9",
"yX c #03CBFF",
"uX c #03D9FF",
"iX c #17D5FF",
"pX c #28C8E9",
"aX c #29D8E6",
"sX c #2DD1EB",
"dX c #03EBE4",
"fX c #03FFE8",
"gX c #16F4E3",
"hX c #03E9FF",
"jX c #18E7FA",
"kX c #03FBFC",
"lX c #16F8F9",
"zX c #22E9F0",
"xX c #44C5C8",
"cX c #FF819F",
"vX c #FF84A9",
"bX c #FF87B7",
"nX c #FF96B9",
"mX c #FFA2BC",
"MX c #FF87C6",
"NX c #FF98C8",
"BX c #FF8CD4",
"VX c #FF9AD5",
"CX c #FFA6C8",
"ZX c #FFB6CD",
"AX c #FFA7D7",
"SX c #FFB9D9",
"DX c #FFAFE0",
"FX c #FFB9E3",
"GX c #FEC0CA",
"HX c #FFC5DA",
"JX c #FFC7E7",
"KX c #FFD5EB",
"LX c #FFDAF1",
"PX c #FFE4EA",
"IX c #FFE6F5",
"UX c #FFF9FC",
/* pixels */
"                                                                                                                                                                                                                                                                ",
"                                                                                                                                                                                                                                                                ",
"                                                                                                                                                                                                                                                                ",
"                                                                                                                                                                                                                                                                ",
"        f.f.f.f.f.f.f.f.f.f.f.f.f.f.f.f.f.f.f.f.f.f.f.f.f.f.f.f.f.f.f.f.f.f.f.f.f.f.f.f.f.f.f.f.f.f.f.f.f.f.f.f.f.f.f.f.f.f.a.8 8.r.5.6.4 ; > 2 2.6.r.8.5.5.8.r.r.6.8.i.r.R.i.r.r.i.i.R.i.i.r.8.0.0.r.r.r.r.8.i.r.r.i.i.i.R.i.r.i.i.T.R.R.i.R.R.!.R.!.T.        ",
"        f.f.f.f.f.f.f.f.f.f.f.f.f.f.f.f.f.f.f.f.f.f.f.f.f.f.f.f.f.f.f.f.f.f.f.f.f.f.f.f.f.f.f.f.f.f.f.f.f.f.f.f.f.f.f.f.f.f.a.0 u.i.0.4.5.2 4.r.6.6.8.7.5.6.6.5.3.4.r.!.i.i.i.r.i.i.i.r.r.i.r.8.8.r.r.8.i.i.0.6.8.r.r.R.R.r.i.R.r.R.R.R.R.R.R.!.(.T.R.!.        ",
"        f.f.a.0 0 0 0 0 0 0 0 0 0 0 0 0 0 0 0 0 0 0 0 0 0 0 0 0 0 0 0 0 0 0 0 0 0 0 0 0 0 0 0 0 0 0 0 0 0 0 0 0 0 0 0 0 0 0 0 0 _.^.d.s.d.^._._.s.s.w.w.d.%Xs.6.6.w.).].'._._.].].].).).'._./././._._._.].'.^././._.).'._._.).).).].'.].'.'.].].(.R.i.R.        ",
"        f.f.0 . . . . . . . . . . . . . . . . . . . . . . . . . . . . . . . . . . . . . . . . . . . . . . . . . . . . . . . o Q.kXfXfXrXrXkXkXfXrXfXrXrXrXfXfXrXfXkXfXkXkXkXkXkXhXkXkXkXkXkXfXfXkXkXkXkXfXrXfXkXkXkXrXrXkXkXkXkXkXkXkXkXkXkXhXkX8Xe.i.i.        ",
"        f.f.0 . . . . . . . . . . . . . . . . . . . . . . . . . . . . . . . . . . . . . . . . . . . . . . . . . . . . . . . o E.hXfXrXfXkXkXkXfXrXkXkXfXkXkXkXkXkXfXfXkXhXuXhXkXkXkXkXkXkXkXkXkXkXfXfXkXfXfXfXkXkXkXkXfXkXkXhXkXkXhXhXhXkXhXhXhX5X9.8.8.        ",
"        f.f.0 . . . . . . . . . . . . . . . . . . . . . . . . . . . . . . . . . . . . . . . . . . . . . . . . . . . . . . . o Q.kXrXrXfXkXkXfXfXrXfXkXkXkXkXkXhXkXkXkXkXkXhXhXkXfXfXkXkXkXfXkXkXkXfXfXkXkXkXkXkXkXkXhXkXkXkXhXkXkXkXkXkXkXkXkXhX5X3.4.6.        ",
"        f.f.0 . . . . . . . . . . . . . . . . . . . . . . . . . . . . . . . . . . . . . . . . . . . . . . . . . . . . . . . o Q.kXfXfXkXkXkXfXfXfXrXfXfXfXkXkXhXkXkXfXkXhXhXkXkXkXkXkXkXkXfXkXkXkXkXkXkXkXkXkXkXkXhXhXkXhXhXhXkXkXhXkXhXkXkXhXkX:X2 5.6.        ",
"        f.f.0 . . . . . . . . . . . . . . . . . . . . . . . . . . . . . . . . . . . . . . . . . . . . . . . . . . . . . . . o `.uXkXkXkXkXfXfXrXrXrXrXfXfXkXkXhXhXkXkXkXkXhXhXkXkXkXfXkXkXfXfXfXfXkXkXkXkXkXkXkXhXhXhXhXhXhXhXkXkXkXhXkXkXkXhXkX=X, 7 5.        ",
"        f.f.0 . . . . . . . . . . . . . . . . . . . . . . . . . . . . . . . . . . . . . . . . . . . . . . . . . . . . . . . o `.yXkXkXkXfXfXfXfXrXrXfXfXfXkXkXkXkXkXkXkXkXhXhXhXkXkXkXkXfXkXkXfXfXkXkXhXkXkXkXkXhXhXhXuXhXhXhXhXkXhXkXkXkXkXkXfXd.- 1 4         ",
"        f.f.0 . . . . . . . . . . . . . . . . . . . . . . . . . . . . . . . . . . . . . . . . . . . . . . . . . . . . . . . o `.uXkXkXkXkXfXfXrXrXrXfXfXfXfXfXfXkXhXkXkXkXuXhXhXhXkXkXkXkXhXkXkXkXfXkXkXkXkXhXkXhXhXuXuXuXuXuXuXhXhXhXkXkXkXrXrXw.- < ;         ",
"        f.f.0 . . . . . . . . . . . . . . . . . . . . . . . . . . . . . . . . . . . . . . . . . . . . . . . . . . . . . . . o Q.hXfXfXkXkXfXfXrXrXfXfXfXfXkXfXrXfXkXfXfXhXhXuXhXuXhXkXhXhXhXkXkXkXfXfXkXkXkXhXhXhXhXuXuXyXuXuXuXhXhXuXhXhXkXfXrXd.- ; -         ",
"        f.f.0 . . . . . . . . . . . . . . . . . . . . . . . . . . . . . . . . . . . . . . . . . . . . . . . . . . . . . . . . E.hXkXhXhXkXfXrXfXrXfXfXfXfXdX5XwXfXfXfXrXkXhXuXuXuXhXhXuXhXhXkXkXkXfXfXkXkXhXhXhXhXhXhXyXyXyXuXuXuXhXhXhXkXkXfXrX*X7 1 -         ",
"        f.f.0 . . . . . . . . . . . . . . . . . . . . . . . . . . . . . . . . . . . . . . . . . . . . . . . . . . . X . X X X 9 hXhXhXhXkXfXfXrXrXfXkXfXrXfXdX8XeXwXkXfXfXkXkXhXhXhXhXhXhXhXhXkXkX5Xu.dXhXhXuXhXhXuXuXyXyXyXyXyXuXuXuXhXhXkXfXfX;X5.4 1         ",
"        f.f.0 . . . . . . . . . . . . . . . . . . . . . . . . . . . . . . . . . . . . . . . . . . . . . . X X X O O + + # # $ w qX<X9XsXzXlXlXkXfXkXkXfXfXrXfXdXfXrXkXkXkXrXrXfXkXhXhXhXkXhXhXhXkX8X'.kXhXuXhXhXhXuXuXuXyXyXyXyXyXuXuXhXhXkXkXkX:X5.8.7.        ",
"        f.f.0 . . . . . . . . . . . . . . . . . . . . . . . . . . . . . . . . . . . . . . . . . . . X O O @ $ % * * y y u u u d &.&.&.$.n.N.h.oX3X9XzXlXkXfXfXfXfXrXfXkXkXfXrXrXrXkXhXkXkXkXhXkXkXkXfXkXhXhXhXhXhXuXhXuXyXyXyXyXuXhXhXhXhXkXhXkX;X5.8.y.        ",
"        f.f.0 . . . . . . . . . . . . . . . . . . . . . . . . . . . . . . . . . . . . . . . . X O + $ & i p d x U ` <.V.[ { M B O...M M b x c ! H *.M..X#XaXlXfXrXfXfXkXkXfXkXfXrXkXkXkXkXkXkXkXkXkXhXhXhXhXhXuXhXhXuXuXuXuXuXuXhXkXfXkXhXhXkXkX5X7.r.r.        ",
"        f.f.0 . . . . . . . . . . . . . . . . . . . . . . . . . . . . . . . . . . . . . X X O $ & t s z x E Y Y [ VXUXU.c.v.x.G.KXJXS.Y Y k x x k k k l F b.l.$XtXfXkXkXhXkXkXhXhXkXkXkXhXhXkXhXhXkXhXhXhXhXhXhXhXhXuXuXuXyXuXuXkXfXrXkXhXkXkXkX5Xe.r.8.        ",
"        f.f.0 . . . . . . . . . . . . . . . . . . . . . . . . . . . . . . . . . . . . X O % * s z U Y Y Y Y Y Y Y z.SXVXL.U.VXFXLXKXKXK.Y m j j d j k j k k c F #. X0XlXkXkXkXhXhXhXkXkXhXhXkXkXhXhXhXkXhXhXhXhXhXhXuXuXuXuXyXuXuXhXkXhXhXhXhXhX5X5.r.8.        ",
"        f.f.0 . . . . . . . . . . . . . . . . . . . . . . . . . . . . . . . . . X X + % t d K M E E Y U m U m U M E { CXIXKXSXNXO.x.MXIXvXQ m x z z f d u d j k k l *..X9XhXkXkXkXkXkXkXhXkXkXhXkXkXkXkXhXhXkXhXhXhXuXhXhXuXhXuXuXuXuXhXhXhXhXkX:X5.8.8.        ",
"        f.f.0 . . . . . . . . . . . . . . . . . . . . . . . . . . . . . . . . X O $ = f U Y Y Y Y Y U Y Y U U U m U E o.DXF.Q E Y Y x.AXIXMX..U k L c d d d d d d x x L =.l.sXkXkXkXkXkXkXkXkXkXkXkXkXkXkXhXkXhXhXhXuXuXhXhXhXhXhXhXuXhXhXhXhXkX;X7.8.8.        ",
"        f.f.0 . . . . . . . . . . . . . . . . . . . . . . . . . . . . . . X O @ * s m Y Y Y Y Y Y Y E Y Y Y Y U Y U U E { Y Y Y Y Y Q o.G.VXNX' U z z j z c z d d d j k x ! b.#X6XkXfXkXkXkXkXkXkXfXkXkXkXhXkXhXhXhXhXhXhXhXhXuXhXhXuXhXhXhXkXfX;X7.8.r.        ",
"        f.f.0 . . . . . . . . . . . . . . . . . . . . . . . . . . . . . X + % p x Y Y Y Y Y E E Y Y E E Y Y Y Y Y M U E Y U U U W N Y Y E V.LXCXY x f f z z f j d f d u d j x h +.~.gXkXkXkXkXkXkXkXkXkXkXkXkXhXkXhXhXhXhXuXuXuXuXhXhXhXhXhXfXrX%X7.y.i.        ",
"        f.f.0 . . . . . . . . . . . . . . . . . . . . . . . . . . . . O @ * d E Y M Y Y Y E E Y Y Y E E Y E E Y Y Y Y E E U U U U U W R R Q P.KXF.Y j l z f f f d f k z d d j k k A oXlXkXkXfXfXfXkXkXkXkXkXkXkXkXhXkXhXuXuXuXuXuXuXhXkXkXkXfXfX*X7.i.r.        ",
"        f.f.0 . . . . . . . . . . . . . . . . . . . . . . . . . . . O % i x Y Y Y Y Y E Y Y Y Y E Y E E E E E E E Y Y Y W Y W U W R U Y R Y x.FXSXQ x l z f z f z f f j j d d d j k F  XaXkXfXfXfXkXkXkXkXhXkXfXfXkXhXhXuXuXyXyXyXuXhXkXrXrXkXfX;X7.u.i.        ",
"        f.f.0 . . . . . . . . . . . . . . . . . . . . . . . . . X O & p U Y M Y M Y Y Y Y Y E E E E [ [ [ E E E [ E E Y Y W U E W W U N R Q L.LXmXY x c c z c c v z f f f f d d d j k c m.qXlXfXkXkXkXfXkXkXkXkXkXkXhXhXuXuXyXyXyXyXhXfXrXkXhXkX;X7.R.u.        ",
"        f.f.0 . . . . . . . . . . . . . . . . . . . . . . . . X O & d M Y M Y Y Y Y Y E E E [ E E E E [ [ E E E E E E E E E Y W E W W W Y Q NXIXV.M m L c c z c c c z c z f f j f d d x k n.xXkXkXkXkXkXkXkXkXkXkXhXkXhXuXuXyXyXyXyXhXfXfXfXkXkX;X7.r.y.        ",
"        f.f.0 . . . . . . . . . . . . . . . . . . . . . . . X + & d Y Y M Y Y E Y E E E E E E E E E E E E E E E [ E [ E E E W E W W W R Y R vXLXV.M R N c c c c c z z c z z f z z z d s k k *.4XlXkXkXkXkXkXkXkXkXkXkXhXuXuXyXyXyXuXkXfXfXfXkXkX8Xt.u.y.        ",
"        f.f.0 . . . . . . . . . . . . . . . . . . . . . . X + & j Y Y Y Y E E Y Y Y Y E E E E E E E [ E [ [ E [ [ [ E [ Q E E Q E W W W U W X.CXFXnXD.R b c L c v v c c l z f z c x z d d k k *.3XlXkXkXfXkXkXkXkXkXkXkXhXyXyXhXkXkXfXfXkXkXkXhX8Xy.i.u.        ",
"        f.f.0 . . . . . . . . . . . . . . . . . . . . . X O & z Y M Y Y Y E Y Y Y E E E E E [ [ [ [ [ [ [ [ [ [ [ E [ [ E E Q E W W W W T T M o.bXHXLXbXQ Y N v L v c z f c z f z c v z j d j k =.3XkXkXkXkXkXkXkXkXkXkXuX1XyXkXfXfXkXkXkXhXkXkX-X4 7.7.        ",
"        f.f.0 . . . . . . . . . . . . . . . . . . . . . O & d Y M Y Y Y E E E E Y E E [ [ { } [ } } } [ } [ [ [ [ [ Q [ [ [ Q E Q E Q W W W N m Y ] vXIXAXX.M v L c L c c c v z f z v z d z d k b b.<XkXkXkXkXkXkXkXhXhXyX1XuXkXfXkXkXkXkXkXkXfX%X, 1 1         ",
"        f.f.0 . . . . . . . . . . . . . . . . . . . . O % d Y Y Y Y Y Y E E E E E E [ [ } } } } } } } } } [ } [ [ [ [ [ [ Q E Q Q Q Q W R W ( T N M R K.IXGX..b v v v c P P P c z f c z f d z z x k M.9XkXfXkXhXhXhXyXyXyXuXkXkXkXkXfXfXfXkXkXfX%X1 1 1         ",
"        f.f.0 . . . . . . . . . . . . . . . . . . . X $ p Y M Y Y Y E E [ E E [ E { { } o.o.o.o.o.} } } } } } { { [ [ [ Q [ [ Q E Q Q Q R W T W ( T M B F.IXmX' b L v L P T P c c c c z f d f c j k x k.zXkXhXhXuXuXyXyXhXrXrXfXkXfXfXfXfXfXkXfXs.; < <         ",
"        f.f.0 . . . . . . . . . . . . . . . . . . X @ i m M Y Y E E E [ [ } [ [ [ ..} o.O.o.z.x.O.o.x.} } } } [ [ } } [ Q [ Q Q [ Q Q Q W W ) W ( ( T B R D.DXbXQ N P L v v v v v v v z l f z z d d k h oXjXhXhXuXhXkXkXfXrXrXfXfXfXfXkXfXfXfXfXr.- 1 3         ",
"        f.f.0 . . . . . . . . . . . . . . . . . X O & x Y Y Y E [ E E E [ } Q [ { o.o.z.z.,.z.V.z.O.O.x.o.} } } { o.o.[ Q [ [ Q Q Q Q Q Q Q Q R ` W ( ( N M C.KXF.B N ~ P v v L v v c K z c v z k j m b @.3XhXuXhXkXrXrXfXhXkXfXkXfXfXkXkXrXfXfXd.- 3 3         ",
"        f.f.0 . . . . . . . . . . . . . . . . . X % s Y Y Y Y E E Y E E E [ [ { o.o.z.V.C.C.C.A.V.V.z.O.o.o.} } } } { { [ { Q Q Q Q Q Q Q ' R ` ( R ) ( ( m Q ZXFX' B ` I v L L c c c c c c k k Q J.L.Q U n.sXhXhXkXrXrXfXhXkXrXfXfXfXfXfXrXfXfX^.- 3 1         ",
"        f.f.0 . . . . . . . . . . . . . . . . X @ i m M Y Y Y E Y Y E E E [ [ o.o.O.V.C.A.D.D.S.A.C.V.z.O.o.o.} } { { { [ { Q { Q Q Q Q Q Q Q ) ) R ' ( ( N B cXJX,.B ` ~ v P v L c c c z k b Q Z.MXD.Z.{ / .XlXkXkXrXfXfXfXkXfXfXfXkXfXfXfXfXfX*X1 7 7         ",
"        f.f.0 . . . . . . . . . . . . . . . . O & j Y Y Y Y E E Y E E E E { { o.O.z.C.A.D.F.F.F.D.A.C.V.O.o.o.} } { { { Q { Q Q Q Q Q Q ' Q ) ) Q ` ) ( ) ) R C.DXC.n ( ( ~ P P L L c k m ..F.A.O...M W Q M &.9XkXkXkXkXkXfXfXkXfXfXfXfXfXfXkXfX*X4 9.7.        ",
"        f.f.0 . . . . . . . . . . . . . . . X # p U M Y Y Y E E Y E E E [ } } o.O.V.C.D.F.K.vXK.F.D.A.V.V.o.o.o.} } { { Q { Q { Q Q Q Q ' Q Q ' ' R ) ) ` ' R X.FXCX' B ( ~ P P P ~ m R ,.MXP...m k j j k M x |.lXkXfXkXkXkXkXkXkXfXfXrXfXfXfXfX=X2 8.8.        ",
"        f.f.0 . . . . . . . . . . . . . . . O * z Y Y Y Y Y E E E E E E [ { } o.O.V.A.D.K.vXvXcXK.F.C.C.z.O.o.} } { { { { { Q { Q Q Q ' Q ' ' ' R ) ) ` ) ) R ' nXLXF.R R ~ P ~ T B X.bXSXJ.W k k v z d d d k G xXfXfXkXfXkXkXfXfXfXfXfXrXfXfXfX*X2 8.6.        ",
"        f.f.0 . . . . . . . . . . . . . . X $ s m Y Y Y Y E E E E E E E [ [ ..o.O.V.C.F.F.vXvXvXK.D.A.V.z.O.o.o...{ { { { { ..Q ..' Q ' Q Q ' ' ' ) ) ) ' ) ) R C.LXCXR N ~ ~ T B R vXKXF.W j l z c z j j s j k h.gXfXfXrXfXkXfXfXfXfXfXfXfXfXfX%X1.6.6.        ",
"        f.f.0 . . . . . . . . . . . . . . O & z Y Y E Y E E E E E E [ [ [ [ } o.O.V.C.D.F.K.cXK.F.D.C.C.O.O.o.o.} { } ..{ Q Q Q R Y Q ' ' Q ' ' ' Q ) ' ' ' ) B <.LXvXR N ` ( ( N R K.DX,.m c c z z z j z f d k @.>XrXfXfXfXkXfXkXfXfXfXfXfXfXfX-X9.8.r.        ",
"        f.f.0 . . . . . . . . . . . . . X $ p m m U E Y Y E Y E E E E [ [ { } o.O.,.V.A.D.F.F.F.D.D.V.V.O.o.o.} ..} ..{ ..Q { ' ..X.R Q ' ' ' ' ' ' ' ' ) C V R nXIXF.B ( ( ( ~ P N O.NXF.W c c c c c l j j d j j  XlXfXkXkXkXkXkXkXfXkXfXfXfXrX:X7.r.r.        ",
"        f.f.0 . . . . . . . . . . . . . O % j U m U Y Y Y E E E E E E [ [ [ { } o.O.V.C.C.D.S.D.A.C.V.O.O.o.o...} ..{ { ..Q Q ..J.L.o.B M R ' ' ' ' ' ) ) ) ..G.JXUXF.B ( ( ( ~ ~ N R MXMXR k c c c v z d c c d k *.9XkXkXkXkXkXkXkXfXkXfXfXfXrX=X5.i.i.        ",
"        f.f.0 . . . . . . . . . . . . . @ i m m m m Y Y E E E E E [ E [ [ [ { { o.o.O.V.V.V.C.C.V.V.O.O.o.o...} ....{ ..Q Y Q z.Z.V.G.J.<.) B ) ' ' ' C ) J.VXJXUXUXK.B ( ( ( ( ~ N R C.NXV.x c c c K z f L c d x ! oXkXkXkXkXkXkXkXfXkXfXfXfXfX=X4.8.8.        ",
"        f.f.0 . . . . . . . . . . . . X % s U U m m U Y E E Y E E E [ E [ [ { { { ..o.O.O.,.V.V.z.O.O.o.o.o...} o.{ ..Q { V.vXSXF.Q ,.P.bXbX<.M ) _ C C C.KXUXUXUXKXC.B ) ( ( ( ( ~ m ] nXJ.m l c c c c z f d d j k m.zXfXkXkXkXkXkXkXfXfXkXfXfX;X5.0.6.        ",
"        f.f.0 . . . . . . . . . . . . O & j m m m m U Y Y E E E E E [ E [ [ [ { { ..o.o.o.O.O.O.O.o.o.o...} ..} ..{ ..o.J.BXLXUXbXQ ) X.>.F.NXcXX.) C ) bXUXUXUXKXU.,.C ' ) ( ` ( ( b >.SXD.m c c c v v f f z d d x &.xXfXkXkXkXfXrXkXfXfXfXfXfX;X5.8.8.        ",
"        f.f.0 . . . . . . . . . . . . @ i m x x m m U Y E E Y E E E [ E [ [ [ [ { { } o.o...o.o.....o...} ..} ........Z.J.V.P.F.O.] ) ) B X.ZXHX>.B ,.bXPXUXUXIXBXZ.X._ ) C N ) ) B ' mXAXX.m v c c v L f z v j s k ! oXlXkXkXkXkXfXkXrXfXrXfXfX;X2.4.4.        ",
"        f.f.0 . . . . . . . . . . . X $ s m x k U m U Y Y E E E E E E [ E [ [ [ [ { { } ..} ..} } ..} ..} ..{ ..{ Q ..Z.O.' ..' ' ' ' ' ) ] ZXIXAXMXP.NXKXUXUXUXJXU.O.C Q ' R M n Y bXLXS.M P P L c v v z z v z d j z k.jXkXkXkXkXfXfXfXfXkXkXfX&X1.4.4.        ",
"        f.f.0 . . . . . . . . . . . X & j m k x m m m Y Y E E Y E E [ E E [ [ [ [ [ { { { { } { } ..} } ..} ..........O...' ' ' ' ' ' _ ] _ <.S.S.F.<.:.P.IXUXUXIXKXFXCXNXZXSXnXcXCXUXSX' m P P v c c c z z z j d d k %.qXkXkXkXkXfXkXkXkXkXkXfX*X4.i.r.        ",
"        f.f.0 . . . . . . . . . . . O * j x x x x m U U Y Y E E E E E [ E [ [ [ [ [ [ { { { { { { { ..{ { ....{ ' ..Q X.' ' ' ] ' ) ] ) ] _ _ _ _ _ ) C >.F.CXIXLXP.D.bXVXNXAXFXAXvXF.,.R ~ P P v c c v c f f d j j b J xXfXkXfXfXkXkXkXkXkXkXkX5Xt.R.R.        ",
"        f.f.0 . . . . . . . . . . . @ p x x x x x x m U Y Y E E E E E E E [ E [ E { [ { { [ { { { { { { ........Q o.Z.,.' ' ' ' ] _ _ _ _ _ ] ) _ ) _ _ _ ) ] D.KXHX,._ :.>.] >.X.' ) ( T ~ P P v L c v z z z f d j x ! oXgXfXfXfXfXkXkXkXfXfXfX5Xt.R.i.        ",
"        f.f.0 . . . . . . . . . . X @ s x j j k x m m U U Y Y E E E E [ E [ E [ [ [ [ [ { [ { { { ..{ ..{ Q ....Q K.FXZ.' ' ] ' ' ] ' _ ] _ _ _ _ _ _ _ _ _ Z C S.LXZX) B ) ' ) ) ( ( ~ ~ ~ P P v c v P c z c f d d j l  XlXfXfXkXfXkXfXfXkXkXkX8Xt.R.r.        ",
"        f.f.0 . . . . . . . . . . X % s x j j x x x x U Y Y U E E E E E E E Q [ Q [ Q [ { { Q { { Q { Q ..Q ..Q O.PXFXX.) ' ] ' _ _ _ _ _ _ _ _ _ _ _ ] _ ' _ ) ' F.KXCX] B ) ) ( ( ( ( ~ P P P v v ~ P c f z f j f d j m.zXfXfXkXkXkXfXfXkXkXkX8Xe.r.8.        ",
"        f.f.0 . . . . . . . . . . X & f m K x j x x K U U Y U Y E E Q E E [ { E [ Q [ Q [ { { Q { Q ..Q ..' ' Q C.IXVX' ' ' ] _ ] _ _ _ _ _ _ _ _ ] _ ] _ ] _ _ _ C >.ZXAX] B ) ( ) ( ( T ~ P ~ v L P v c z f f z z j k -.aXkXfXfXkXkXkXkXkXkXkX:X7.i.r.        ",
"        f.f.0 . . . . . . . . . . X & z U L K j x x K m K U W Y E Q E E Q Q Q E Q Q Q [ Q { Q Q { Q ..Q ..z.J.P.L.bXA.] ] _ ] _ _ _ _ _ _ _ _ _ _ _ _ _ _ _ ' _ _ _ C >.JXCX] R ) ` ) ( ~ ~ P ~ v L v c c f f f d z z x $.qXfXrXrXkXhXhXkXkXkXkX:Xq.r.r.        ",
"        f.f.0 . . . . . . . . . . O * j x f j j z x K m K U W Y W E Q E E E Q Q E Q Q Q Q { Q Q Q ' Q ' ..X.vXvX] ' X.] ' _ ] _ _ _ _ _ _ ;._ ;._ _ _ _ _ _ _ ] ' ] ) C F.IXnXR C ( ( ( ~ ~ ~ P P v c c c c z f d d d x &.<XrXrXfXkXhXkXhXkXkXkX5Xp.8.8.        ",
"        f.f.0 . . . . . . . . . . O = x j d j j z x x K K U U U W W E Q E Q Q E Q Q Q Q Q Q Q Q ..' ..' ' Q R R ' ' ' _ _ _ _ _ _ _ _ ;.;._ _ Z ;._ ;._ _ _ _ ' _ _ ) C X.SXSX] B ( ( ( T ~ N P P v c c c c z f f d s k J 4XkXfXkXhXkXfXkXkXkXkX:X7.8.8.        ",
"        f.f.0 . . . . . . . . . . O = x k d d j z z c x K K W U W W W R E Q Q Q E Q Q Q Q Q Q Q ' Q Q ' ' ] ' ] ' ] _ ] _ _ _ ;._ ;._ ;.Z _ ;.;.:.,.:._ _ _ _ ' _ ' _ C >.JXHXX.B ( ( ( ~ ~ ( T P L c c c g z f f d s j D 4XkXfXkXkXkXkXkXkXkXkX;X5.r.r.        ",
"        f.f.0 . . . . . . . . . . + i x x d d x K K x v K K U T U W R E Q Q Q R Q Q Q Q Q Q ' Q ' Q ' ' ' ' ' ' _ ] _ ] _ _ _ ;._ ;.Z ;.Z ;.>.<.C.A.<.;._ _ _ ] _ _ _ C >.JXIXC.B ( ( ( ~ ~ T ~ P L v c c z c c z d d j F $XkXrXkXkXkXkXkXkXkXkX:X7.5.4.        ",
"        f.f.0 . . . . . . . . . . O = x K z d c I I z x K P U T W W R W R Q Q Q Q R Q ' Q ' Q ' ' ' ' ' ' _ ' ] ' _ _ _ _ _ ;.Z ;._ ;.;.;.;.>.L.U.U.C.:.Z _ _ _ ' _ _ ) ,.JXIXC.B ( ( ( ~ ~ ~ P v v v v c z c v z d d j F $XrXrXfXkXkXkXkXkXkXkX5X9.3.2.        ",
"        f.f.0 . . . . . . . . . . + i x v z j j c K c c v T W T U W W R Q Q R Q Q Q Q ' Q ' Q ' ' ' ' ' ) ' ' ] _ _ _ _ _ _ ;._ ;.Z ;.Z ;.:.<.U.DXAXL.,._ Z _ _ ) ;.>.,.bXUXHXX.B ( ( ( ~ T ~ P v P ~ P c f c v f d d j F $XrXrXrXkXfXkXkXkXkXkX5Xq.r.8.        ",
"        f.f.0 . . . . . . . . . . O = x x f d f f x z x v K T T N W T W W W Q Q R Q Q ' R ' ' R ' ' ' _ ' _ ) _ _ ] _ _ _ ;.Z ;.;.Z ;._ :.C.NXJXUXUXKXnXS.] _ Z _ >.Z.U.IXIXP.C R ( ( ( ~ T ` ( P P ~ v c z L v f f j x D #XrXrXrXkXkXkXkXfXkXkX:Xp.i.i.        ",
"        f.f.0 . . . . . . . . . . O = x x z j j z z z c v v P U T T T W R R ) Q R ' ' R ' ' ' ' ' ' ' _ ) ] _ _ _ _ _ _ ;._ ;.;.;.;.;._ <.SXUXPXFXHXKXUXLXMX<._ _ X.P.LXKXP.O.) ) ( ( ( ~ ( ( ( P v v c c f c z z d d x J [.fXrXfXfXkXfXfXfXkXkX8Xt.T.T.        ",
"        f.f.0 . . . . . . . . . . O * x x c x z z z c x v v P K T T T ( W ( R R Q ' Q ' Q ' ' ' ' ' ) ) _ ) ] _ _ _ _ _ Z _ ;.;.;.;.:.D.ZXIXnXC.V.V.A.AXUXUXAXV.X.J.HXKXC.R ' ) ( ( ( ~ ~ T ~ P L P c L c c z z d d z m *.[.fXrXfXrXfXrXfXkXkXkX8Xt.R.i.        ",
"        f.f.0 . . . . . . . . . . O & z x f z z z z c c v v K P P T T W ( R ' ` ) ' Q ' ' ' ' ) ) ' _ ] _ ] _ _ _ _ _ ;._ ;.:.;.:.<.nXLXKXF.C C Z Z X.V.P.LXUXAXNXJXGXC.B V ( ( ( ( ( ( ~ T T P v v v c c f z z j d j m $.>XrXfXrXrXrXrXkXfXkXkX8Xt.R.R.        ",
"        f.f.0 . . . . . . . . . . X % f x f d z z z z c v T T T P T T T I R ) W R ) ) ' ' ' ' ' ' ) ' ) _ _ _ _ _ _ _ ;.Z ;.:.<.J.SXUXGX<.C Z Z ;._ :._ ' G.FXUXUXGX>.B ) _ ( ) ( ( ( ( ~ ~ ~ P P v v v c z f f c f d k -.tXrXrXfXfXrXrXfXkXkXkX5Xt.!.!.        ",
"        f.f.0 . . . . . . . . . . X $ s m z d x z f z c K T I P v T T T T ( ) ` ) ) ) ' ' ' ' ) _ ' _ _ ] _ _ _ _ _ _ _ Z ;.<.MXIXIXmXX.C Z ;._ ;.Z ;.Z Z ] U.UXPXS.B C ' ) ` ( ( ( ( ( ~ P P P v v ~ I c f f d L c j j h.6XrXfXfXrXrXrXfXkXkXkX5Xt.R.R.        ",
"        f.f.0 . . . . . . . . . . . $ p x z d z z f l z P ` T v v P ~ T T ( W ( ( ` R ) ) ' ) ' ' ] ' _ ' _ _ ] _ ;._ ;._ :.P.IXHXD.] Z Z ;._ _ _ Z _ ;._ _ J.LXGXX.B ] ) ( ) ) ) ( ( T ~ ~ P P v P I P z k k d z f j c  X-XfXfXfXrXrXfXkXkXkXkX8Xt.R.R.        ",
"        f.f.0 . . . . . . . . . . . + i x j d f f f z l v P P L P P T T T T ( ( ' ) ) ' ) ' ' ] ' _ _ _ ' _ _ _ _ _ _ _ Z >.SXIXC.C Z Z _ ;._ _ _ _ ;._ Z C >.AXGX:.B ' ) ( ) ) ' ) ( ( ~ P x x v b N b W .... .| L x F #X5XfXfXrXrXfXfXkXkXkXkX5Xe.R.!.        ",
"        f.f.0 . . . . . . . . . . . O * j j d f z z f z c c v v v P T ~ T T ( ( ( ` ( ) ) ) ) ' ' ' ' ] _ ] _ _ _ _ _ _ Z S.IXKXO.Z _ ;._ _ _ _ _ _ _ _ _ C <.FXnX_ ) ) ` ) ( ) ) R N N N R X.] X.,.,.V.bXDXNXP.D.^ k @.>XdXfXfXrXrXfXfXkXkXkXkX5Xp.r.R.        ",
"        f.f.0 . . . . . . . . . . . X % d k f f z z l c c c v c v ( ( ~ N ~ ( ( ( ) ) ) ` ) ' ' _ ' ] ] _ ' _ ] _ _ _ _ _ P.UXCX>.Z _ _ _ _ _ ] _ _ _ ] C ) vXKXS.C ) ) ( ) V R R R ' ' ' A.CXVXNXDXAXAXSXGXnXV.P d k -.0XfXrXrXrXrXfXfXkXkXhXuX8Xp.R.R.        ",
"        f.f.0 . . . . . . . . . . . X $ p x d d z z f z c c c c P ( ( P ~ T ( ( ( ( ) ( ) ) ) ) ' ] ' ) ] ] _ _ _ _ _ _ <.JXKX<.Z _ ;._ ] _ _ _ _ _ _ _ C Z bXKX<.B C ) C R ] <.D.K.bXNXHXIXJXP.D.D.,.X...W m x s f j |.gXrXfXrXrXfXfXfXkXkXhXhX5Xt.!.R.        ",
"        f.f.0 . . . . . . . . . . . . @ i x d d f j f f c c c L v ~ P P P ~ T ( ( ( ( ( ) ) ) ) ' ] ) _ ] _ ) _ ] _ _ >.MXUXP.] Z _ _ _ _ _ ] _ ' _ ] _ ) ) F.FXC.C _ X.,.D.ZXJXFXAXCXHXPXCX,.R M M b j k d j d s k S #XfXrXrXrXfXkXfXfXkXkXkXkX8Xe.R.i.        ",
"        f.f.0 . . . . . . . . . . . . X & j j d j f f f l z c c v P P P P ~ ~ ( ( ` ( ( ` ( ) ) ) ) ' ' ' _ ' _ _ _ _ C.JXIXJ.;._ _ _ _ ] _ _ _ ) _ ' _ ) C <.DXP.Z.Z.L.FXIXSXF.V.X.' X.,.Q M N x z z f f f z z d k $.qXfXrXfXfXfXkXkXfXfXfXfXfX8Xp.i.R.        ",
"        f.f.0 . . . . . . . . . . . . X $ s x z f f f f c c c c L v P P P ~ ~ ~ ( ( ) ( ( ) ) ] ) ) _ ' _ ' ] _ _ _ _ D.IXIXbX' Z _ _ ] ' _ ' ] ' ] ) ' ] R >.SXIXDXBXJXUXnX' M m N b N m m P v c c c z f f z f z k h.gXfXfXkXfXfXkXkXfXrXrXrXfX;Xr.i.i.        ",
"        f.f.0 . . . . . . . . . . . . . + i k j d j f f z c c v c v v P P P ~ ~ ( ( ( ` ( ( ( ' ] ' ) ] ) ' ] ' _ C Z D.UXIXK.) _ _ _ _ ] ' _ ' _ ' _ ) ) C ) nXUXUXUXUXCXR M N ~ ~ P P L v c c c v c z d d z d k F #XfXrXfXfXrXkXkXhXkXkXfXfXfXd.4 r.r.        ",
"        f.f.0 . . . . . . . . . . . . . X % f x d f j f f c v v c c v P P P ~ ~ ~ ~ ( ( ( ) ( ] ' ) ) ) ) ] ' _ ) _ _ ,.CXIXbX' Z ' _ ' ) _ ' ] ' ) ) ' ) ) R <.JXKXJXJXF.R N ~ ~ ~ P P v L c c P v z z f d d j k #.0XfXrXfXkXkXkXkXhXhXkXkXkXkX8.: 2.7         ",
"        f.f.0 . . . . . . . . . . . . . X @ p x j f j f f z z c L c c L v P T ~ T ~ ( ( ( ( ( ( ` ( ) ) ) ) ) ' ' ) _ _ ,.SXJX,.C _ ) ' _ ' ' _ ) ] ) _ ` ) V ' nXVX,.,.>.' T ~ ~ P P P v v v c c c l d d f s x c }.lXfXkXkXhXkXhXkXhXuXhXkXkXkXu.- > >         ",
"        f.f.0 . . . . . . . . . . . . . . O & j x d d d f f z c c c c v v P P ~ T ~ ~ ( ( ( ( ` ( ) ) ) ) ) ' ) _ ' ] C ) bXUXK.B ) ' ] ) ) ' ] ) ) ) ) ` ) ( ' bXNXB n R ( ( ~ P P P L c v c c f z z d z c d k @.qXfXkXhXuXuXhXhXhXhXhXkXkXfXfX=X, 2.,         ",
"        f.f.0 . . . . . . . . . . . . . . X @ p x j s d f f z z c c c P P v P ~ T ~ ~ ( ( ( ( ( ( ( ' ] ` ) ) ) ) ' ] ) _ vXUXFXX.C ) ) ' ) ) ) ) ) ( ) ( ) ( ' bXnX] N ( ~ ~ P ~ P v L P P c z c z f d z f k j e gXfXkXhXuXuXuXhXhXhXhXkXkXkXkX;X3.4.4.        ",
"        f.f.0 . . . . . . . . . . . . . . . O & z k d d f f z c z l c / ~ L v P P ~ ~ ( ( ( ( ( ( ( ) ` ( ) ) ) ) ) ' ) _ bXUXUXCX' B ) ) ) ) ` ) ) ( ) ( ) ( R vXCX] N ~ ~ P P P L v P / P c c z f f j d d k A ~.fXfXkXkXhXkXhXkXkXkXkXkXkXkXkX;X1.2.,         ",
"        f.f.0 . . . . . . . . . . . . . . . X @ i x j d d d f l f z v P ~ P v v P P ~ ~ ( ( ( ( ( ( N ) ) ' ) ) ) ' C ) ] MXUXUXUXvX) V ` ) ) ) ( ) ` ( ( ( B R bXSX] K ~ P P P v v v ~ I v c z f f d d s k g |.-XrXfXkXfXkXkXkXkXkXkXkXfXfXfXkX;X2.1.,         ",
"        f.f.0 . . . . . . . . . . . . . . . . X % d x d d d f f z v v v v c v L P P P P ~ ( ( ( ' ] X.D.,.' ) ) ] ) Z ' A.JXLXmXCXSXF.' B V ( ` ( ( ( ( ( R R C.JXnX( v ~ P v P v L L v c l f z z z d f j k $.0XrXrXfXkXfXkXkXkXkXkXkXkXkXkXkXfX:X7.5.4.        ",
"        f.f.0 . . . . . . . . . . . . . . . . . + = j j f j c L L z z c c v c v v P P P ~ ~ v R D.vXK.K.,.( ) ' ) C ) V.DXHX<.R ) <.bXP.<.R V N ( ( ( ( B R S.JXNXX.N P P P P v L c c c z c f z v z f j x h XXrXrXrXfXkXkXkXkXhXkXhXhXkXhXhXhXkX:X7.8.8.        ",
"        f.f.0 . . . . . . . . . . . . . . . . . X $ p x j f K / ^ f d l v P L c L v P P P ~ k X.VXP.,.) T ( ( ' ) C X.VXKX,.M B B B ' J.bXK.<.' R ( V B ) cXKXnX' M ~ P P v L L c c c c c z f z z z d k j #.6XrXfXrXfXkXkXhXhXhXhXkXhXkXhXhXhXkX5X9.8.6.        ",
"        f.f.0 . . . . . . . . . . . . . . . . . . O % d k j j L P c f c P / L l L v v P P L k V.bXX.b N ~ ~ ( R C ' vXIXS.B ~ ( ( ( N R <.CXDXCXD.' M ' bXKXK.R M P ~ P v P v v c c c c c f z z j f k k +.[.wXfXrXfXkXkXkXkXkXhXhXkXhXhXkXkXkXhX5X0.6.6.        ",
"        f.f.0 . . . . . . . . . . . . . . . . . . X O = j k s d f z c x v P v c c v v L v ~ x ` F.,.N N N N B B C K.IXCXR N ( ( ( ( ( N V ] A.CXLXJ.o.mXIXK.M B ~ P P v v ~ P c c c c z z d z z d d x h }.5XwXfXrXfXkXkXfXrXkXkXkXkXkXhXkXkXkXkX:X5.8.0.        ",
"        f.f.0 . . . . . . . . . . . . . . . . . . . X @ i x j s d f z z z c z c c c v c v T ) N O.K.O.R R ..,.D.vXUXKXX.R ~ ( ~ ~ ( ~ T T N M ] AXFXDXIXbXQ M ~ P P c v T I v c v z l z f d f j j x g e ).wXkXfXrXrXfXkXfXrXkXkXkXkXkXkXkXfXfXkX:X5.8.6.        ",
"        f.f.0 . . . . . . . . . . . . . . . . . . . . X $ s x j f z d j f f z c c c c c P R R B M J.CXK.J.MXAXDXFXSXA.R T ~ ~ ~ T ~ ( ( ( ~ b n ,.KXUXMXQ M ( ~ P v L v P L c c c f z f d d d j b z r >XrXfXfXfXfXfXkXfXfXfXfXfXkXhXhXhXkXkXkXkX5X7.6.0.        ",
"        f.f.0 . . . . . . . . . . . . . . . . . . . . X X % s x x c f d f z z z f c c c P ( W V Y K.UXLXAXNXK.C.V.] R T ~ ~ ~ ~ ~ T ( ( ( ) Q M R SXKX..M N T P v c v v c c c z f f f d d d j x k r tXrXfXfXfXrXfXkXfXrXrXfXfXkXkXkXuXhXhXkXkXkX:X9.6.6.        ",
"        f.f.0 . . . . . . . . . . . . . . . . . . . . . . O % s x j f z z c z f f l c v K T W M ) CXSXP.V...R M N m N P P ~ T P P T ( T R ,.P.A.V.CXS.m v ~ P v c c c c v x z c L v j j z j x k M.qXfXfXkXfXfXrXfXkXkXrXrXrXfXfXkXkXhXhXkXkXkXkX;X4.4.4.        ",
"        f.f.0 . . . . . . . . . . . . . . . . . . . . . . X O & s k x z z j z f f z z v v v N n D.VXO.Q B m v v P v P P P ~ T P P P P N ' U.UXLXDXP.R k L v v c c c f c v z f L / v d d j m k -.qXkXkXkXkXfXfXfXfXkXkXfXrXfXrXfXfXfXfXkXkXfXfXfX;X4.3.4.        ",
"        f.f.0 . . . . . . . . . . . . . . . . . . . . . . . X O % s m k d d d d f c c c x v b n P.G.R k c c v v v v L L P P P P ~ P N Q Z.BXLXUXJXO.m v c L c c c z l c c z f c L z s d k x B.9XkXkXkXkXkXkXkXkXkXrXfXkXkXfXrXfXkXfXrXrXfXrXrXrX*X4.0.6.        ",
"        f.f.0 . . . . . . . . . . . . . . . . . . . . . . . . X O % s k k d s d j z z z c N Y <.MX,.B v c c c c c v v c c x b N B ( R X.I.I.NXLXD.Y x c c c z c c z f z z f d j f d j x ! B.2XhXkXhXkXkXkXkXkXkXkXfXfXkXkXkXkXkXkXkXfXfXrXrXrXrX=X4.6.6.        ",
"        f.f.0 . . . . . . . . . . . . . . . . . . . . . . . . . . O $ p j x j d d j f j x M M bXNXX.R K v v v v L v B M M R ' Y M R ) ' z.x.U.FX>.M v c c z c z z z f f f d d f d j x H l.pXhXkXhXkXkXkXhXkXkXkXhXhXkXhXhXkXhXkXkXkXkXfXrXrXfXfX=X4.4.3.        ",
"        f.f.0 . . . . . . . . . . . . . . . . . . . . . . . . . . . X $ = d x k d d d f K n Y P.MX] m c c c c v T M E A.K.L.NXbX,.n n B B R A.AX>.M c c l f z l f f j d d d s j k k =.+XjXhXhXhXhXhXkXkXhXkXkXkXhXhXhXhXkXkXhXhXkXkXfXrXfXfXkXkX:X0.8.8.        ",
"        f.f.0 . . . . . . . . . . . . . . . . . . . . . . . . . . . X X + & s x k d d s x Y O.AXJ.R j z z z c c M Q MXLXFXA.P.JXFX<.R n n n R P.V.b z z f f f d d f f d s d j b ! B.3XhXhXkXhXkXhXuXhXhXhXkXkXfXkXhXhXhXkXhXkXhXhXkXfXfXkXkXhXkX8Xe.R.i.        ",
"        f.f.0 . . . . . . . . . . . . . . . . . . . . . . . . . . . . . X O $ i d x j d z O.JXnXQ x c c z c j k n P.JXnX,.Y R ,.bXAXAXK.{ ..o.P.A.b k z f d f f j j d u j x j =.@XpXhXhXhXkXhXhXkXhXhXhXhXuXhXkXkXkXhXkXkXhXkXhXhXhXkXkXkXkXkXkX5Xe.R.i.        ",
"        f.f.0 . . . . . . . . . . . . . . . . . . . . . . . . . . . . . . . X @ & p j j m ..PXMXY j L K f j K ..Z.LXP.R Y k x B Q V.bXDXU.H.MXNXz.M x z j z z f d j j k k J k.3XiXhXhXhXhXhXhXhXkXkXkXkXhXhXhXhXhXhXhXkXhXhXhXhXuXhXkXhXhXkXkXkX8Xp.R.i.        ",
"        f.f.0 . . . . . . . . . . . . . . . . . . . . . . . . . . . . . . . . X O $ * p j b <.K...k d f d j R } Z.bX..n z z x R M M Y A.U.H.VXU.{ M N j f z z j j m k H B.OXiXuXhXhXhXhXhXhXkXkXhXkXkXkXkXhXhXhXhXhXhXhXhXhXhXhXuXuXkXkXkXkXkXhX8Xp.i.R.        ",
"        f.f.0 . . . . . . . . . . . . . . . . . . . . . . . . . . . . . . . . . . X O $ & p j n M b d d d z R R Y { Y j j z k m x x Y Z.BXBXVXJXZ.Y x d d j m x z J N.OXpXuXuXuXuXhXhXhXhXhXkXhXhXuXhXkXhXkXkXkXkXkXkXhXhXhXhXhXhXkXkXfXkXhXkXhX5Xp.i.i.        ",
"        f.f.0 . . . . . . . . . . . . . . . . . . . . . . . . . . . . . . . . . . . . X O $ % t s j x k k k { Q K x K z j l z k z U  .P.AXBXU.FXJ.M m k k j S %.j.3XaXhXhXhXhXuXuXuXhXhXhXhXhXhXhXuXhXuXhXkXkXkXkXrXfXkXkXkXhXkXkXfXkXkXkXhXhXhX5Xp.i.i.        ",
"        f.f.0 . . . . . . . . . . . . . . . . . . . . . . . . . . . . . . . . . . . . . . X X @ $ * i s d k m Y b k b k k j j j j x P  .O.x.x.x.Q b c D -.k.+X9XlXkXkXhXhXkXhXhXhXhXkXhXkXhXhXhXhXuXuXuXhXrXrXkXkXfXkXhXkXfXfXrXrXfXkXhXkXhXhXhX8Xp.i.i.        ",
"        f.f.0 . . . . . . . . . . . . . . . . . . . . . . . . . . . . . . . . . . . . . . . . X X O @ $ & = p s d j z k x x k j k j k v K ^ | J %.k..X3X0XjXhXkXhXkXkXhXkXhXhXuXhXhXkXhXhXhXhXhXhXuXuXuXuXkXrXkXhXhXuXhXhXkXrXrXrXfXkXhXhXhXhXhX5Xp.i.i.        ",
"        f.f.0 . . . . . . . . . . . . . . . . . . . . . . . . . . . . . . . . . . . . . . . . . . . X X O O @ $ % & * = i i p a r r r |. XoX#X<X0XjXkXkXkXkXkXkXkXkXkXhXhXhXhXhXkXkXhXhXkXhXhXhXuXuXuXyXuXkXkXhXhXuXhXhXuXhXkXfXkXkXkXkXfXkXkXhX5Xe.i.i.        ",
"        f.f.0 . . . . . . . . . . . . . . . . . . . . . . . . . . . . . . . . . . . . . . . . . . . . . . X . X X O O O + + + 6 tXtXgXlXlXkXkXkXhXkXkXkXkXfXfXkXkXhXkXhXhXhXkXkXkXkXhXkXhXhXhXhXuXuXuXuXhXhXhXuXhXhXkXkXhXkXkXkXhXkXfXfXrXfXkXkX:X7.r.r.        ",
"        f.f.0 . . . . . . . . . . . . . . . . . . . . . . . . . . . . . . . . . . . . . . . . . . . . . . . . . . . . . X . X 9 rXfXfXkXkXkXhXhXkXkXkXfXfXrXfXfXkXkXhXhXhXkXhXhXhXhXhXkXhXhXhXuXuXhXuXhXkXhXhXhXhXhXkXhXkXkXkXkXhXkXfXfXfXfXfXfX;X4.6.5.        ",
"        f.f.0 . . . . . . . . . . . . . . . . . . . . . . . . . . . . . . . . . . . . . . . . . . . . . . . . . . . . . . . o 9 rXfXkXkXkXkXkXhXhXhXfXrXfXrXrXkXkXkXkXhXkXkXkXhXuXhXhXhXhXhXuXuXyXuXhXkXkXkXhXhXhXhXhXkXkXfXfXkXkXkXfXfXrXrXrXrX:X4 , >         ",
"        f.f.0 . . . . . . . . . . . . . . . . . . . . . . . . . . . . . . . . . . . . . . . . . . . . . . . . . . . . . . . . 9 fXfXkXkXkXkXkXhXhXkXfXkXkXrXrXfXkXkXkXkXhXhXhXhXhXhXhXuXhXuXuXyXuXuXhXhXuXuXuXuXhXhXhXkXkXfXfXkXkXfXfXfXrXrXfXrX:X5.4 2         ",
"        f.f.0 . . . . . . . . . . . . . . . . . . . . . . . . . . . . . . . . . . . . . . . . . . . . . . . . . . . . . . . . 9 rXfXkXkXkXkXhXhXkXkXkXhXkXfXrXrXfXkXkXkXhXuXuXhXuXhXhXhXuXhXuXuXuXuXuXuXhXuXuXhXhXkXhXkXkXfXkXkXkXfXfXrXfXfXkXfX:X9.5.9.        ",
"        f.f.0 . . . . . . . . . . . . . . . . . . . . . . . . . . . . . . . . . . . . . . . . . . . . . . . . . . . . . . . . 9 fXfXkXkXhXkXhXhXhXhXhXkXkXrXfXfXkXkXkXkXkXhXhXhXuXuXuXuXuXuXuXyXuXuXuXuXuXuXuXuXhXkXkXhXkXkXkXkXkXfXfXfXfXfXkXkX5X7.8.6.        ",
"        f.f.0 . . . . . . . . . . . . . . . . . . . . . . . . . . . . . . . . . . . . . . . . . . . . . . . . . . . . . . . o Q.kXkXkXkXkXhXhXhXhXuXhXkXfXfXkXfXkXkXkXkXhXhXhXhXuXuXyXuXuXuXuXyXyXhXuXuXuXhXuXuXuXhXkXkXkXkXkXkXkXfXrXfXfXrXfXkX:X7.9.4.        ",
"        f.f.0 . . . . . . . . . . . . . . . . . . . . . . . . . . . . . . . . . . . . . . . . . . . . . . . . . . . . . . . o Q.kXkXkXkXkXhXkXhXhXhXhXhXkXfXkXkXkXkXhXhXhXhXhXhXyXuXuXuXuXuXuXuXuXuXuXuXhXuXuXhXhXhXkXkXkXkXkXkXkXrXrXfXfXfXfXkX:Xe.i.r.        ",
"        f.f.0 . . . . . . . . . . . . . . . . . . . . . . . . . . . . . . . . . . . . . . . . . . . . . . . . . . . . . . . . Q.kXkXkXkXkXkXhXhXhXhXhXkXkXkXkXhXkXkXhXhXhXhXhXhXyXuXuXuXuXhXuXuXyXyXuXuXuXuXuXuXhXhXhXhXkXkXkXkXfXkXkXkXkXkXkXkX5Xe.R.R.        ",
"        f.f.0 . . . . . . . . . . . . . . . . . . . . . . . . . . . . . . . . . . . . . . . . . . . . . . . . . . . . . . . . Q.kXkXkXkXhXhXhXhXhXhXhXhXkXkXhXhXhXhXhXhXhXhXhXuXyXyXuXuXuXuXuXyXyXyXyXuXuXuXuXyXuXuXhXhXkXkXkXkXkXkXhXuXhXhXhXhX5Xe.R.i.        ",
"        f.~.0 . . o . o . o . o . o . o . o . o . o . o . o . o . o . o . o . o . o . o . o . o . o . o . o . o . o . o . o o Q.hXkXhXkXkXkXhXhXhXhXhXhXhXkXhXhXhXhXhXhXhXuXhXuXyXyXyXuXuXuXuXuXyXyXyXuXuXyXuXuXuXhXhXhXkXfXfXkXkXkXhXuXuXhXhXhX5Xt.T.R.        ",
"        f.f.a.5 5 5 5 5 5 5 5 5 5 5 5 5 5 5 5 5 5 5 5 5 5 5 5 5 5 5 5 5 5 5 5 5 5 5 5 5 5 5 5 5 5 5 5 5 5 5 5 5 5 5 5 5 5 5 5 t.dX8X8X5X:X:X:X5X5X5X8X5X8X5X5X8X8X8X7X8X8X8X7X7X7X7X,X,X7X7X7X,X,X,X,X,X7X7X7X7X7X8X8X8X8X;X&X:X5X5X5X5X5X5X5X:X_.r.i.i.        ",
"        f.f.f.{.{.{.{.{.{.{.{.{.{.{.{.{.{.{.{.{.{.{.{.{.{.{.{.{.{.{.{.{.{.{.{.{.{.{.{.{.{.{.{.{.{.{.{.{.{.{.{.{.{.{.{.{.{.{.{.q Y.Y.e.q.7.p.q.5.9.t.t.p.p.p.p.e.t.t.Y.t.t.Y.Y.Y.t.Y.g.Y.Y.Y.Y.g.g.g.g.Y.Y.Y.Y.Y.t.t.t.t.t.9.1.3.q.q.9.9.5.q.e.p.r.r.r.8.        ",
"        f.f.f.f.f.f.f.f.f.f.f.f.f.f.f.f.f.f.f.f.f.f.f.f.f.f.f.f.f.f.f.f.f.f.f.f.f.f.f.f.f.f.f.f.f.f.f.f.f.f.f.f.f.f.f.f.f.f.a.q Q.!.r.0.r.R.i.r.r.R.R.i.i.i.!.!.R.!.!.!.!.!.!.!.!.!.!.!.!.W.!.W.W.W.W.!.!.!.!.!.R.R.!.R.R.i.0.6.r.i.i.i.i.i.R.i.i.R.R.R.        ",
"        f.f.a.f.f.f.a.f.a.f.a.f.a.f.a.f.a.a.a.a.f.a.a.a.f.a.f.a.a.f.a.f.a.f.a.f.a.a.a.a.f.a.a.a.a.a.f.a.a.a.a.a.f.a.a.a.f.a.a.q T.R.8.5.r.R.i.i.i.i.i.i.i.R.R.!.!.!.!.!.!.!.!.!.!.!.!.!.W.W.W.W.W.W.!.!.!.W.W.!.R.R.R.R.i.R.6.6.i.i.i.i.i.i.u.R.u.T.T.!.        ",
"                . . . . . . . . . . . . . . . . . . . . . . . . . . . . . . . . . . . . . . . . . . . . . . . . . . . . . . . . . . . . . . . . . . . . . . . . . . . . . . . . . . . . . . . . . . . . . . . . . . . . . . . . . . . . . . . . . . . .         ",
"                                                                                                                                                                                                                                                                ",
"                                                                                                                                                                                                                                                                ",
"                                                                                                                                                                                                                                                                "
};
